!!!!SEGMENT: pl-wnifc--3111-n--001-003_sowinski-wojciech--grandes-etudes-de-concert-op-60-etude-de-cadence-brisee.krn
!!!cenid: 18xx:3853
!!!COM: Sowiński, Wojciech
!!!COM-rismID: pe30008543
!!!CDT: ~1803-1880/03/05
!!!CNT:
!!!GTL: Grandes Études de concert op. 60
!!!OTL: Étude de cadence brisée
!!!OMV: 003
!!!PDT: 1843
!!!AGN:
!!!YEC: Copyright 2022 Narodowy Instytut Fryderyka Chopina (https://polishscores.org)
!!!YEM: License CC-BY-4.0 (https://creativecommons.org/licenses/by/4.0)
!!!SMS-siglum: PL-Wnifc
!!!SMS-shelfmark: 3111/n
!!!SMS-shelfwork: 001-003 G
!!!SMS-variant:
!!!SMS-altvar:
!!!NIFC-rismSourceID: 1001141968
!!!NIFC-rismChildID: 1001141971
!!!NIFC-islandoraID: nifc:212151
!!!URL-pdf-islandora: https://repozytorium.nifc.pl/islandora/object/nifc%3A212151/datastream/PDF/view
!!!URL-scan: https://polish.musicsources.pl/pl/lokalizacje/galeria/druki-muzyczne/16829 @EN{Scan on Polish Music Sources Website} @PL{Skany w portalu Dziedzictwo Muzyki Polskiej w otwartym dostępie}
!!!IIIF:
!!!ONB-nifc:
!!!AIN: 2 piano
!!!key: B-
**kern	**fing	**kern	**fing	**dynam
*part2	*	*part1	*	*
*staff2	*	*staff1	*	*
*I"LE PIANO	*	*I"LE PIANO	*	*
*I'pf	*	*I'pf	*	*
*ICklav	*	*ICklav	*	*
*Ipiano	*	*Ipiano	*	*
*clefF4	*	*clefG2	*	*
*k[b-e-]	*	*k[b-e-]	*	*
*B-:	*	*B-:	*	*
*M6/4	*	*M6/4	*	*
=1	=1	=1	=1	=1
!	!	!LO:TX:a:B:t=Allegretto cantabile	!	!
4BBB-/ 4BB-	.	(>2.d/ 2.f	.	p
*	*above	*	*	*
32qqEn/LLL	3	.	.	.
32qqF/	2	.	.	.
32qqG/JJJ	1	.	.	.
*ped	*	*	*	*
2FT\	3	.	.	.
(32qqE/LLL	3	.	.	.
32qqF/	1	.	.	.
32qqD/	2	.	.	.
32qqBB-/JJJ	3	.	.	.
4FF'/)	.	4d/ 4f	.	<
4r	.	4d/ 4f	.	.
4r	.	4d/) 4f 4b-	.	[[
=2	=2	=2	=2	=2
4BBB-/ 4BB-	.	(>2.d/ 2.f 2.dd	.	.
32qqEn/LLL	.	.	.	.
32qqF/	.	.	.	.
32qqG/JJJ	.	.	.	.
2FT\	.	.	.	.
(32qqE/LLL	.	.	.	.
32qqF/	.	.	.	.
32qqD/	.	.	.	.
32qqBB-/JJJ	.	.	.	.
*	*	*	*	*^
4FF'/)	.	4d/ 4f 4dd	.	>	.
!	!	!	!	!	!LO:DY:b=2
4BB-'/	.	4d/ 4f 4a	.	.	p
4BBB-'/	.	4d/ 4f 4b-	.	]]	.
*	*	*	*	*v	*v
=3	=3	=3	=3	=3
4BB-'/	.	2.d/) 2.f	.	.
32qqEn/LLL	.	.	.	.
32qqF/	.	.	.	.
32qqG/JJJ	.	.	.	.
2FT\	.	.	.	.
(32qqE/LLL	.	.	.	.
32qqF/	.	.	.	.
32qqD/	.	.	.	.
32qqBB-/JJJ	.	.	.	.
4FF/)	.	(>4d/ 4f	.	<
*Xped	*	*	*	*
4BB-'/	.	4d/ 4f 4a	.	.
4BBB-'/	.	4d/ 4f 4b-	.	p [[
=4	=4	=4	=4	=4
4FFF/ 4FF	.	[2.c/) [2.f 2.a [<2.cc	.	sf
32qqEn/LLL	.	.	.	.
32qqF/	.	.	.	.
32qqG/JJJ	.	.	.	.
*ped	*	*	*	*
2FT\	.	.	.	.
(32qqE/LLL	.	.	.	.
32qqF/	.	.	.	.
32qqD/	.	.	.	.
32qqBB-/JJJ	.	.	.	.
4FF'/)	.	4c/] 4f] 4a 4cc]	.	.
4r	.	4f^/	.	.
4r	.	4f^/	.	.
*Xped	*	*	*	*
=5	=5	=5	=5	=5
*	*	*^	*	*
*	*	*	*^	*	*
!	!	!LO:TX:a:t=ten	!	!	!	!
4EE-::\ 4BB-:: 4E-::	.	2.g::/	4.G<:/ 4.B-<: 4.e-:	4ryy	.	.
*	*below	*	*	*	*	*
32qqA/LLL	3	.	.	.	.	.
32qqB-/	2	.	.	.	.	.
32qqc/JJJ	1	.	.	.	.	.
*ped	*	*	*	*	*	*
2B-T\	.	.	.	1ryy	.	sfz
.	.	.	2.ryy	.	.	.
(32qqA/LLL	3	.	.	.	.	.
32qqB-/	2	.	.	.	.	.
32qqe-/	1	.	.	.	.	.
32qqB-/	2	.	.	.	.	.
32qqF/	1	.	.	.	.	.
32qqD/JJJ	2	.	.	.	.	.
4BB-\)	.	4G<^>/ 4B-< 4e- 4g	.	.	.	.
4BB-\	.	4G<^>/ 4B-< 4e- 4g	.	.	.	.
.	.	.	4.ryy	.	.	.
4BBB-'/	.	4A<^>/ 4c< 4a	.	4ryy	.	.
*Xped	*	*	*	*	*	*
!!LO:LB:g=original	!	!	!	!	!	!
=6	=6	=6	=6	=6	=6	=6
4BB-^/	.	2.b-:/	4.B-:/ 4.d:	4ryy	.	sf
*ped	*	*	*	*	*	*
32qqA/LLL	.	.	.	.	.	.
32qqB-/	.	.	.	.	.	.
32qqc/JJJ	.	.	.	.	.	.
2B-T\	.	.	.	4ryy	.	sf
.	.	.	1ryy	.	.	.
.	.	.	.	1ryy	.	.
(32qqA/LLL	.	.	.	.	.	.
32qqB-/	.	.	.	.	.	.
32qqd/	.	.	.	.	.	.
32qqB-/	.	.	.	.	.	.
32qqF/	.	.	.	.	.	.
32qqD/JJJ)	.	.	.	.	.	.
4BB-'/	.	4B-/ 4d 4b-	.	.	.	.
4BB-'/	.	4c^>/ 4f 4a	.	.	.	.
4BBB-'/	.	4d^>/ 4f 4b-	.	.	.	.
.	.	.	8ryy	.	.	.
*Xped	*	*	*	*	*	*
*	*	*v	*v	*v	*	*
=7	=7	=7	=7	=7
4FFF/ 4FF	.	4f\ 4a 4cc	.	f
32qqEn/LLL	.	.	.	.
32qqF/	.	.	.	.
32qqG/JJJ	.	.	.	.
*ped	*	*	*	*
2F\	.	4f^\ 4a 4cc 4gg	.	.
.	.	4f^\ 4a 4cc 4ff	.	.
(32qqE/LLL	.	.	.	.
32qqF/	.	.	.	.
32qqC/	.	.	.	.
32qqAA/JJJ	.	.	.	.
4FF/)	.	4f^\ 4a 4cc 4ee-	.	.
32qqEEn/LLL	.	.	.	.
32qqFF/	.	.	.	.
32qqGG/JJJ	.	.	.	.
2FFT</	.	4e-^\ 4a 4dd	.	.
.	.	4e-^\ 4a 4cc	.	.
32qqEE/LLL	.	.	.	.
32qqFF/JJJ	.	.	.	.
*Xped	*	*	*	*
=8	=8	=8	=8	=8
4BBB-/	.	2d/ 2b-	.	p
32qqA/LLL	.	.	.	.
32qqB-/	.	.	.	.
32qqc/JJJ	.	.	.	.
2B-T\	.	.	.	.
.	.	4r	.	.
32qqd/LLL	1	.	.	.
32qqB-/	2	.	.	.
32qqF/	1	.	.	.
32qqD/JJJ	.	.	.	.
4BB-/	.	4r	.	.
4r	.	4d^/ 4f	.	.
4r	.	4d^/ 4f	.	.
=9	=9	=9	=9	=9
4BBB-/ 4BB-	.	2.f\ 2.b- 2.dd 2.ff	.	f
32qqA/LLL	.	.	.	.
32qqB-/	.	.	.	.
32qqc/JJJ	.	.	.	.
*ped	*	*	*	*
2B-T\	.	.	.	.
(32qqA/LLL	.	.	.	.
32qqB-/	.	.	.	.
32qqd/	.	.	.	.
32qqB-/	.	.	.	.
32qqF/	.	.	.	.
32qqD/JJJ)	.	.	.	.
4BB-'/	.	4f^\ 4b- 4dd 4ff	.	.
4BB-'/	.	4f^\ 4b- 4dd 4ff	.	p
4BBB-'/	.	4b-^\ 4dd 4ff 4bb-	.	.
=10	=10	=10	=10	=10
8qqBBB-/	.	.	.	.
4BB-^/	.	2.dd\ 2.ff 2.bb- 2.ddd	.	f
32qqA/LLL	.	.	.	.
32qqB-/	.	.	.	.
32qqc/JJJ	.	.	.	.
2B-T\	.	.	.	.
(32qqA/LLL	.	.	.	.
32qqB-/	.	.	.	.
32qqd/	.	.	.	.
32qqB-/	.	.	.	.
32qqF/	.	.	.	.
32qqD/JJJ	.	.	.	.
4BB-'/)	.	4dd^\ 4ff 4bb- 4ddd	.	.
4BB-'/	.	4a^\ 4dd 4ff 4aa	.	p
4BBB-'/	.	4b-^\ 4dd 4ff 4bb-	.	.
!!LO:LB:g=original	!	!	!	!
=11	=11	=11	=11	=11
4qqBBB-/	.	.	.	.
4BB-^/	.	[>2.f\ [>2.b- [2.dd 2.ff	.	.
32qqA/LLL	.	.	.	.
32qqB-/	.	.	.	.
32qqc/JJJ	.	.	.	.
2B-T\	.	.	.	.
(32qqA/LLL	1	.	.	.
32qqB-/	3	.	.	.
32qqd/	2	.	.	.
32qqf/	1	.	.	.
32qqd/	2	.	.	.
32qqB-/	4	.	.	.
32qqF/	1	.	.	.
32qqD/JJJ	.	.	.	.
4BB-'/)	.	4f\] 4b-] 4dd] 4ff	.	.
4BB-'/	.	4a\ 4dd 4ff 4aa	.	.
4BBB-'/	.	4b-\ 4dd 4ff 4bb-	.	.
=12	=12	=12	=12	=12
*	*	*ped	*	*
4FFF/ 4FF	.	2.cc\ [2.aa [2.ccc	.	sf
32qqen>/LLL	.	.	.	.
32qqf>/	.	.	.	.
32qqg>/JJJ	.	.	.	.
2f>T>\	.	.	.	.
*	*	*	*	*
32qqe>/LLL	3	.	.	.
32qqf>/	1	.	.	.
32qqc>/	2	.	.	.
32qqA>/	4	.	.	.
32qqF/	5	.	.	.
32qqF/	1	.	.	.
32qqC/	.	.	.	.
32qqAA/	.	.	.	.
32qqFF/	5	.	.	.
32qqFF/	1	.	.	.
32qqCC/	.	.	.	.
32qqAAA/JJJ	.	.	.	.
4FFF'/	.	4cc\ 4ff 4aa] 4ccc]	.	p
4r	.	4ff\	.	.
4r	.	4ff\	.	.
*	*	*Xped	*	*
=13	=13	=13	=13	=13
4BBn\ 4Bn	.	2.dd\ 2.ff 2.gg 2.ddd	.	p
32qqa#X>/LLL	.	.	.	.
32qqbn>/	.	.	.	.
32qqcc>/JJJ	.	.	.	.
(<2bny>t>\	.	.	.	.
32qqa#>/LLL	.	.	.	.
32qqb>/	.	.	.	.
32qqg>/	.	.	.	.
32qqf>/JJJ	.	.	.	.
*	*above	*	*	*
4Bn>\)	5	(4dd\ 4ff 4gg 4ddd	.	.
!	!	!	!	!LO:DY:b=2
*	*	*	*	*
4B'\	1	4cc\ 4ff 4gg 4ccc	.	p
4BB'/	.	4dd\) 4ff 4gg 4ddd	.	.
=14	=14	=14	=14	=14
4C/	.	(2.ff\ 2.gg 2.fff	.	.
32qqbn>/LLL	.	.	.	.
32qqcc>/	.	.	.	.
32qqdd>/JJJ	.	.	.	.
2cc>T>\	.	.	.	.
(32qqb>/LLL	.	.	.	.
32qqcc>/	.	.	.	.
32qqg>/	.	.	.	.
32qqe->/JJJ	.	.	.	.
4c>'\)	5	4ee-\) 4gg 4eee-	.	.
!	!	!	!	!LO:DY:b=2
4c'\	.	(4ee-^<\ 4gg-X 4eee-	.	p
4C'/	.	4ee-\) 4gg- 4ddd	.	.
=15	=15	=15	=15	=15
4AA'/	.	2.ee-\ 2.gg-X 2.ccc	.	.
32qqg#X>/LLL	.	.	.	.
32qqa>/	.	.	.	.
32qqb-X>/JJJ	.	.	.	.
2a>t>\	.	.	.	.
32qqg#>/LLL	.	.	.	.
32qqa>/	.	.	.	.
32qqf#X>/	.	.	.	.
32qqe-X>/JJJ	.	.	.	.
4A>\	5	(4ee-\ 4gg- 4ccc	.	.
!	!	!	!	!LO:DY:b=2
4A\	1	4ee-\ 4gg- 4bbn	.	p
4AA'/	.	4ee-\) 4gg- 4ccc	.	.
!!LO:LB:g=original	!	!	!	!
=16	=16	=16	=16	=16
4BBB-'/ 4BB-	.	(2.ee-\ 2.ff 2.eee-	.	sf
32qqa>/LLL	.	.	.	.
32qqb->/	.	.	.	.
32qqcc>/JJJ	.	.	.	.
2b->T>\	.	.	.	.
32qqa>/LLL	.	.	.	.
32qqb->/	.	.	.	.
32qqdd>/	.	.	.	.
32qqb->/	.	.	.	.
32qqf>/	.	.	.	.
32qqd>/JJJ	.	.	.	.
4B->\	5	4dd\) 4ff 4ddd	.	.
4B-'\	.	(4dd\ 4ff 4ddd	.	.
4BB-'/	.	4dd\) 4ff 4ccc	.	.
=17	=17	=17	=17	=17
*	*	*^	*	*
*ped	*	*	*	*	*
4GG\ 4G	.	2.dd\ 2.gg 2.bb-	1ryy	.	pp
32qqf#X>/LLL	.	.	.	.	.
32qqg>/	.	.	.	.	.
32qqa>/JJJ	.	.	.	.	.
2g>T>\	.	.	.	.	.
32qqf#>/LLL	.	.	.	.	.
32qqg>/	.	.	.	.	.
32qqd>/	.	.	.	.	.
32qqB->/JJJ	.	.	.	.	.
4G\	5	(4dd\ 4ff 4bb-	.	.	.
4G\	1	4dd\ 4gg 4ccc	4ryy	.	.
4GG/	.	8bb-/L	4dd\ 4gg	.	.
.	.	8ccc/J)	.	.	.
*Xped	*	*	*	*	*
*	*	*v	*v	*	*
=18	=18	=18	=18	=18
*ped	*	*	*	*
4DD/ 4D	.	2dd\ 2ff#X 2ddd	.	.
32qqD/LLL	.	.	.	.
32qqC#X/	.	.	.	.
32qqD/	.	.	.	.
32qqE-/JJJ	.	.	.	.
4Dt\	.	.	.	.
32qqC#/LLL	.	.	.	.
32qqD/JJJ	.	.	.	.
4DD'/	.	(>4d/ 4f#X 4a	.	.
*Xped	*	*	*	*
2GG/	.	[4d/ 4g 4b-	.	.
.	.	4d/] 4g 4cc	.	.
4GG/	.	8d/L 8g 8b-	.	.
.	.	8cc/J)	.	.
=19	=19	=19	=19	=19
*	*	*ped	*	*
4DD/ 4D	.	(2.d/ 2.f#X 2.dd	.	.
32qqD/LLL	.	.	.	.
32qqC#X/	.	.	.	.
32qqD/	.	.	.	.
32qqE-/JJJ	.	.	.	.
4Dt\	.	.	.	.
*	*	*Xped	*	*
32qqC#/LLL	.	.	.	.
32qqD/JJJ	.	.	.	.
*	*	*ped	*	*
4DD/	.	.	.	.
!	!	!	!	!LO:HP:t=cres
4D-X\	.	(2.g\) 2.ee-	.	<
32qqC#/LLL	.	.	.	.
32qqD-X/	.	.	.	.
32qqE-/JJJ	.	.	.	.
4D-T\	.	.	.	.
32qqC#/LLL	.	.	.	.
32qqD-/JJJ	.	.	.	.
4DD-X'/	.	.	.	.
*	*	*Xped	*	*
=20	=20	=20	=20	=20
*	*	*ped	*	*
4CC/ 4C	.	(2g\) 2een	.	.
32qqBBn/LLL	.	.	.	.
32qqC/	.	.	.	.
32qqDn/JJJ	.	.	.	.
4CT</	.	.	.	.
*	*below	*	*	*
32qqBB/LLL	3	.	.	.
32qqC/JJJ	1	.	.	.
*	*	*Xped	*	*
4CC/	.	(4b-\) 4gg	.	.
*	*	*ped	*	*
4FF/	.	4a\ 4ff	.	.
32qqEEn/LLL	.	.	.	.
32qqFF/	.	.	.	.
32qqGG/JJJ	.	.	.	.
4FFT</	.	4f\ 4a 4ee-X	.	.
32qqEE/LLL	.	.	.	.
32qqFF/JJJ	.	.	.	.
4FFF/	.	4e-\) 4a 4cc	.	.
*	*	*Xped	*	*
!!LO:LB:g=original	!	!	!	!
=21	=21	=21	=21	=21
4BBB-/ 4BB-	.	2d/ 2f	.	p
*ped	*	*	*	*
32qqEn/LLL	.	.	.	.
32qqF/	.	.	.	.
32qqG/JJJ	.	.	.	.
2FT\	.	.	.	.
.	.	4ryy	.	.
(32qqE/LLL	.	.	.	.
32qqF/	.	.	.	.
32qqD/	.	.	.	.
32qqBB-/JJJ	.	.	.	.
4FF'/)	.	(>4d/ 4f	.	<
4r	.	4d/ 4f	.	.
4r	.	4d/ 4f 4b-	.	.
=22	=22	=22	=22	=22
4BBB-/ 4BB-	.	2.d/) 2.f 2.dd	.	[[
32qqEn/LLL	.	.	.	.
32qqF/	.	.	.	.
32qqG/JJJ	.	.	.	.
(<2FT\	.	.	.	.
32qqE/LLL	.	.	.	.
32qqF/	.	.	.	.
32qqD/	.	.	.	.
32qqBB-/JJJ	.	.	.	.
4FF'/)	.	(>4d/ 4f 4dd	.	.
4BB-'/	.	4d/ 4f 4a	.	.
4BBB-'/	.	4d/ 4f 4b-	.	.
=23	=23	=23	=23	=23
4BB-'/	.	2.d/) 2.f	.	.
32qqEn/LLL	.	.	.	.
32qqF/	.	.	.	.
32qqG/JJJ	.	.	.	.
(<2FT\	.	.	.	.
32qqE/LLL	.	.	.	.
32qqF/	.	.	.	.
32qqD/	.	.	.	.
32qqBB-/JJJ	.	.	.	.
4FF/)	.	(>4d/ 4f	.	.
4BB-'/	.	4d/ 4f 4a	.	.
4BBB-'/	.	4d/ 4f 4b-	.	.
*Xped	*	*	*	*
=24	=24	=24	=24	=24
4FFF/ 4FF	.	[2.c/) [2.f [<2.a [<2.cc	.	sf
32qqEn/LLL	.	.	.	.
32qqF/	.	.	.	.
32qqG/JJJ	.	.	.	.
*ped	*	*	*	*
2FT\	.	.	.	.
(32qqE/LLL	.	.	.	.
32qqF/	.	.	.	.
32qqC/	.	.	.	.
32qqAA/JJJ	.	.	.	.
4FF'/)	.	4c/] 4f] 4a] 4cc]	.	.
4r	.	4f^/	.	.
4r	.	4f^/	.	.
*Xped	*	*	*	*
=25	=25	=25	=25	=25
4FF\ 4F	.	2.c/ 2.f 2.a-X 2.cc	.	mf
32qqEn/LLL	.	.	.	.
32qqF/	.	.	.	.
32qqG/JJJ	.	.	.	.
2FT\	.	.	.	.
32qqE/LLL	.	.	.	.
32qqF/	.	.	.	.
32qqC/	.	.	.	.
32qqAA-X/JJJ	.	.	.	.
4FF'/	.	4c/ 4f 4a- 4cc	.	.
4F\	.	4c^>/ 4f 4a- 4cc	.	.
4BBB-^>/ 4BB-	.	4d^>/ 4f 4a- 4dd	.	.
!!LO:PB:g=original	!	!	!	!
=26	=26	=26	=26	=26
!	!	!LO:TX:b:i:t=ten	!	!
4EE-/ 4E-	.	[2.e-/ [2.g-X [<2.ee-	.	f
32qqAn/LLL	.	.	.	.
32qqB-/	.	.	.	.
32qqc-X/JJJ	.	.	.	.
(<2B-t\	.	.	.	.
32qqA/LLL	5	.	.	.
32qqB-/	.	.	.	.
32qqG-X/	.	.	.	.
32qqE-/JJJ	.	.	.	.
4BB-'/)	.	4e-/] 4g-] 4ee-]	.	.
4r	.	4g-/ 4b-	.	.
4r	.	4g-/ 4b-	.	.
=27	=27	=27	=27	=27
4EE-/ 4E-	.	2.e-/ 2.g-X 2.b- 2.ee-	.	.
32qqA/LLL	.	.	.	.
32qqB-/	.	.	.	.
32qqc-X/JJJ	.	.	.	.
2B-t\	.	.	.	.
32qqG/LLL	3	.	.	.
32qqB-/	1	.	.	.
32qqG-/	2	.	.	.
32qqE-/JJJ	.	.	.	.
4D-X'\	.	(4a-\ 4cc-X 4ff	.	<
4D-'\	.	4a-\ 4cc- 4ee-	.	.
4DD-y'/	.	4a-\) 4cc- 4ff	.	[[
=28	=28	=28	=28	=28
4GGG-X/ 4GG-X	.	[>2.g-X\ [2.b- [2.gg-X	.	f
32qqc/LLL	.	.	.	.
32qqd-X/	.	.	.	.
32qqe-/JJJ	.	.	.	.
2d-T\	.	.	.	.
(32qqc/LLL	3	.	.	.
32qqd-/	1	.	.	.
32qqB-/	2	.	.	.
32qqG-X/JJJ	.	.	.	.
4D-X\)	.	4g-\] 4b-] 4gg-]	.	.
4r	.	4b-'\ 4dd	.	p
4r	.	4b-'\ 4dd	.	.
=29	=29	=29	=29	=29
*	*	*ped	*	*
!	!	!LO:TX:b:t=les 2	!	!
*	*	*	*	*
4GG-X/	.	2.b-\ 2.dd-X	.	.
32qqc/LLL	.	.	.	.
32qqd-X/	.	.	.	.
32qqe-/JJJ	.	.	.	.
2d-T\	.	.	.	.
(32qqc/LLL	.	.	.	.
32qqd-/	.	.	.	.
32qqB-/	.	.	.	.
32qqG-X/JJJ)	.	.	.	.
4D-X'\	.	4b-\ 4dd-	.	.
4G-y'\	.	(4b-'\ 4dd-	.	.
4GG-'/	.	4b-'\) 4dd- 4gg-X	.	.
=30	=30	=30	=30	=30
4qqGG-X/	.	.	.	.
4G-X\	.	2.b-^<\ 2.dd-X 2.bb-	.	.
32qqc/LLL	.	.	.	.
32qqd-X/	.	.	.	.
32qqe-/JJJ	.	.	.	.
2d-T\	.	.	.	.
(32qqc/LLL	.	.	.	.
32qqd-/	.	.	.	.
32qqB-/	.	.	.	.
32qqG-X/JJJ	.	.	.	.
4D-X'\)	.	(4b-\ 4dd- 4bb-	.	.
4G-'\	.	4b-'\ 4dd- 4aa-X	.	.
4GG-X'/	.	4b-'\) 4dd- 4gg	.	.
!!LO:LB:g=original	!	!	!	!
=31	=31	=31	=31	=31
4G-X\	.	2.b-\ 2.dd-X	.	.
32qqc/LLL	.	.	.	.
32qqd-X/	.	.	.	.
32qqf/JJJ	.	.	.	.
2d-T\	.	.	.	.
32qqB-/LLL	.	.	.	.
32qqd-/	.	.	.	.
32qqB-/	.	.	.	.
32qqG-X/	.	.	.	.
32qqD-X/JJJ	.	.	.	.
*	*	*Xped	*	*
4E-^\	.	(4b-^\ 4dd- 4ggn	.	.
4E-'\	.	4b-\ 4dd- 4ff	.	<
4EE-'/	.	4b-\) 4dd- 4gg	.	[[
=32	=32	=32	=32	=32
4AA-X/	.	[>2.a-X\ [2.cc-X [2.aa-X	.	f
32qqd/LLL	.	.	.	.
32qqe-/	.	.	.	.
32qqf-X/JJJ	.	.	.	.
2e-t\	.	.	.	.
*	*above	*	*	*
32qqd/LLL	3	.	.	.
32qqe-/	2	.	.	.
32qqf-/	1	.	.	.
32qqe-/	2	.	.	.
32qqc/	1	.	.	.
32qqA/JJJ	2	.	.	.
4E-\	4	4a-'\] 4cc-] 4aa-]	.	.
4r	.	4cc-'\ [4ee-	.	p
4r	.	4cc-'\ 4ee-]	.	.
=33	=33	=33	=33	=33
*ped	*	*	*	*
4AA-X'/	.	2cc-X\ 2ee-	.	.
32qqd/LLL	.	.	.	.
32qqe-/	.	.	.	.
32qqf-X/JJJ	.	.	.	.
2e-t\	.	.	.	.
.	.	4ryy	.	.
(32qqd/LLL	.	.	.	.
32qqe-/	.	.	.	.
32qqf-/	.	.	.	.
32qqe-/	.	.	.	.
32qqc/	.	.	.	.
32qqA/JJJ)	.	.	.	.
4E-\	.	4cc-'\ 4ee-	.	.
4A\	.	4cc-'\ 4ee-	.	.
4AA-/	.	4cc-'\ 4ee- 4aa-X	.	.
=34	=34	=34	=34	=34
4AA-X/	.	2.cc-X\ 2.ee- 2.ccc-X	.	.
32qqd/LLL	.	.	.	.
32qqe-/	.	.	.	.
32qqf-X/JJJ	.	.	.	.
2e-t\	.	.	.	.
(32qqd/LLL	.	.	.	.
32qqe-/	.	.	.	.
32qqf-/	.	.	.	.
32qqe-/	.	.	.	.
32qqc/	.	.	.	.
32qqA/JJJ)	.	.	.	.
4E-\	.	(4cc-\ 4ee- 4ccc-	.	.
4A\	.	4cc-\ 4ee- 4bb-	.	.
4AA-/	.	4cc-\) 4ee- 4aa-X	.	.
=35	=35	=35	=35	=35
*Xped	*	*	*	*
4D-X\	.	2cc-X\ 2dd-X 2ff	.	.
32qqc/LLL	.	.	.	.
32qqd-X/	.	.	.	.
32qqe-/JJJ	.	.	.	.
2d-T\	.	.	.	.
.	.	4cc-\ 4dd- 4aa-X	.	.
(32qqc/LLL	.	.	.	.
32qqd-/	.	.	.	.
32qqf/	.	.	.	.
32qqd-/	.	.	.	.
32qqA/	.	.	.	.
32qqF/JJJ)	.	.	.	.
4G-X'\	.	(4b-\ 4dd- 4gg-X	.	.
4G-'\	.	4b-\ 4dd- 4ff	.	.
4GG'/	.	4b-\) 4dd- 4gg-	.	.
!!LO:LB:g=original	!	!	!	!
=36	=36	=36	=36	=36
*ped	*	*	*	*
!	!	!LO:TX:a:t=ten	!	!
4DD-X\ 4D-X	.	[>2.a-X\ [>2.dd-X [2.ff [2.aa-X	.	f
*	*	*	*	*
32qqc/LLL	3	.	.	.
32qqd-X/	2	.	.	.
32qqe-/JJJ	1	.	.	.
2d-T\	.	.	.	.
32qqc/LLL	3	.	.	.
32qqd-/	2	.	.	.
32qqf/	1	.	.	.
32qqd-/	2	.	.	.
32qqA/	4	.	.	.
32qqF/JJJ	1	.	.	.
4D-'\	3	4a-\] 4dd-] 4ff] 4aa-]	.	.
4D-'\	1	4r	.	.
*	*below	*	*	*
4DD-/	5	4r	.	.
*Xped	*	*	*	*
=37	=37	=37	=37	=37
*	*	*	*	*
4CC/ 4C	.	2.an\ 2.ee-X 2.ff#X 2.aan	.	fp
32qqc/LLL	.	.	.	.
32qqBn/	.	.	.	.
32qqc/	.	.	.	.
32qqd-X/JJJ	.	.	.	.
2c^<t\	.	.	.	.
(32qqB/LLL	.	.	.	.
32qqc/	.	.	.	.
32qqAn/	.	.	.	.
32qqF#X/JJJ	.	.	.	.
4C'/)	5	4a\ 4ee- 4ff# 4aa	.	.
4C'/	1	(4a'\ 4ee- 4ff# 4aa	.	.
4CC'/	.	4a'\) 4ee- 4ff# 4aa	.	.
=38	=38	=38	=38	=38
*ped	*	*	*	*
4DD-X/ 4D-X	.	[>2.an\ 2.dd- [2.ffn [2.aa-	.	.
32qqc/LLL	.	.	.	.
32qqd-X/	.	.	.	.
32qqe-X/JJJ	.	.	.	.
2d-y^<T\	.	.	.	.
32qqc/LLL	.	.	.	.
32qqd-/	.	.	.	.
32qqf/	.	.	.	.
32qqd-/	.	.	.	.
32qqA/	.	.	.	.
32qqF/JJJ	.	.	.	.
*	*above	*	*	*
4D-X\	5	4an\] 4dd- 4ff] 4aa-]	.	.
4D-\	1	4r	.	.
*Xped	*	*	*	*
4DD-'/	.	4r	.	.
=39	=39	=39	=39	=39
*ped	*	*	*	*
4CC/ 4C	.	[>2.an\ [>2.ee-X [2.ff#X 2.aan	.	sf
32qqc/LLL	.	.	.	.
32qqBn/	.	.	.	.
32qqc/	.	.	.	.
32qqd-X/JJJ	.	.	.	.
2c^<t>\	.	.	.	.
32qqB-y/LLL	.	.	.	.
32qqc/	.	.	.	.
32qqAn/	.	.	.	.
32qqF#X/JJJ	.	.	.	.
*	*below	*	*	*
4C/	5	4a'\] 4ee-] 4ff#] 4aa	.	.
4r	.	(4a'\ 4ee- 4ff# 4aa	.	p
4r	.	4a'\) 4ee- 4ff# 4aa	.	.
!!LO:LB:g=original	!	!	!	!
=40	=40	=40	=40	=40
4BBBn/ 4BBn	.	[>2.an\ [>2.dd#X [2.ff#X 2.aan	.	.
32qqBn/LLL	.	.	.	.
32qqA#X/	.	.	.	.
32qqB/	.	.	.	.
32qqc#X/JJJ	.	.	.	.
2BnyT\	.	.	.	.
(32qqA#/LLL	.	.	.	.
32qqB/	.	.	.	.
32qqAn/	.	.	.	.
32qqF#X/JJJ	.	.	.	.
4BB/)	.	4a\] 4dd#] 4ff#] 4aa	.	.
4r	.	(4a'\ 4dd# 4ff# 4aa	.	.
4r	.	4a'\) 4dd# 4ff# 4aa	.	.
*Xped	*	*	*	*
=41	=41	=41	=41	=41
*ped	*	*	*	*
4BBBn/ 4BBn	.	[>2.g#X\ [2.een [2.gg#X	.	.
32qqBn/LLL	.	.	.	.
32qqA#X/	.	.	.	.
32qqB/	.	.	.	.
32qqc#X/JJJ	.	.	.	.
2BnyT\	.	.	.	.
(32qqA#/LLL	.	.	.	.
32qqB/	.	.	.	.
32qqG#X/	.	.	.	.
32qqEn/JJJ	.	.	.	.
4BB/)	.	4g#\] 4ee] 4gg#]	.	.
4r	.	(4g#'\ 4ee 4gg#	.	pp
4r	.	4g#'\) 4ee 4gg#	.	.
=42	=42	=42	=42	=42
4BBBn/ 4BBn	.	[>2.gn\ [2.een [2.ggn	.	.
32qqBn/LLL	.	.	.	.
32qqA#X/	.	.	.	.
32qqB/	.	.	.	.
32qqc#X/JJJ	.	.	.	.
2BnyT\	.	.	.	.
32qqA#/LLL	.	.	.	.
32qqB/	.	.	.	.
32qqGn/	.	.	.	.
32qqE-/JJJ	.	.	.	.
4BB/	.	4g\] 4ee] 4gg]	.	.
4r	.	4g'\ 4ee 4gg	.	pp
4r	.	4g'\ 4ee 4gg	.	.
=43	=43	=43	=43	=43
*ped	*	*	*	*
4BBB-X/ 4BB-X	.	[>2.gn\ [2.een [2.ggn	.	.
32qqAn/LLL	.	.	.	.
32qqB-X/	.	.	.	.
32qqcn/JJJ	.	.	.	.
2B-T\	.	.	.	.
32qqA/LLL	.	.	.	.
32qqB-/	.	.	.	.
32qqc/	.	.	.	.
32qqB-/	.	.	.	.
32qqG/	.	.	.	.
32qqE-/	.	.	.	.
32qqC#X/JJJ	.	.	.	.
4BB-X/	.	4g\] 4ee] 4gg]	.	.
4r	.	(4g'\ 4ee 4gg	.	pp
4r	.	4g'\) 4ee 4gg	.	.
!!LO:LB:g=original	!	!	!	!
=44	=44	=44	=44	=44
4AAAn/ 4AAn	.	2f#X^<\ 2ddn 2ff#X	.	sf
32qqA#X/LLL	.	.	.	.
32qqG#X/	.	.	.	.
32qqA#/	.	.	.	.
32qqB-X/JJJ	.	.	.	.
4A#yt\	.	.	.	.
32qqGny/LLL	.	.	.	.
32qqA#y/JJJ	.	.	.	.
4AA/	.	4f#\ 4dd 4ff#	.	.
8qqAAA/	.	.	.	.
4AA/	.	2fn\ 2dd 2ffn	.	.
32qqA#/LLL	.	.	.	.
32qqG#X/	.	.	.	.
32qqA#y/	.	.	.	.
32qqB-X/JJJ	.	.	.	.
4A#t<\	.	.	.	.
32qqGny/LLL	.	.	.	.
32qqA#y/JJJ	.	.	.	.
4AA/	.	4f\ 4dd 4ff	.	.
=45	=45	=45	=45	=45
8qqAAA/	.	.	.	.
*	*	*^	*	*
*	*	*	*^	*	*
4AA/	.	2en\ 2b- 2dd 2een	2.ryy	2.ryy	.	.
32qqA/LLL	.	.	.	.	.	.
32qqG#X/	.	.	.	.	.	.
32qqA/	.	.	.	.	.	.
32qqB-X/JJJ	.	.	.	.	.	.
4At\	.	.	.	.	.	.
32qqG#/LLL	.	.	.	.	.	.
32qqA/JJJ	.	.	.	.	.	.
4AA/	.	4e\ 4b- 4dd 4ee	.	.	.	.
8qqAAA/	.	.	.	.	.	.
4AA/	.	2dd/ 2ee	4g/	2.e\	.	.
32qqA/LLL	.	.	.	.	.	.
32qqG#X/	.	.	.	.	.	.
32qqA/	.	.	.	.	.	.
32qqB-X/JJJ	.	.	.	.	.	.
4At\	.	.	4b-^/	.	.	.
32qqG#/LLL	.	.	.	.	.	.
32qqA/JJJ	.	.	.	.	.	.
4AA/	.	4a/ 4cc#X 4ee	4ryy	.	.	.
*	*	*v	*v	*v	*	*
=46	=46	=46	=46	=46
*^	*	*	*	*
2.D:\ 2.A:	2.ryy	.	4r	.	f
.	.	.	32qqa/LLL	.	<
.	.	.	32qqb-X/JJJ	.	.
.	.	.	2at</	.	.
.	.	.	32qqg#X\LLL	.	[
.	.	.	32qqa\	.	.
.	.	.	32qqdd\	.	.
.	.	.	32qqff\	.	.
.	.	.	32qqaa\	.	.
.	.	.	32qqddd\	.	.
.	.	.	32qqfff\	.	.
!LO:TX:a:i:t=marcato il canto	!	!	!	!	!
.	.	.	32qqaaa\JJJ	.	.
4A^/	2.D\	.	4aa\	.	.
*	*	*	*clefF4	*	*
!	!	!	!	!	!LO:DY:a
.	.	.	32qqAA/LLL	.	mf
.	.	.	32qqBB-X/JJJ	.	.
4A^/	.	.	2AAt</	.	.
4d^/	.	.	.	.	.
.	.	.	32qqGG#X/LLL	.	.
.	.	.	32qqAA/	.	.
.	.	.	32qqC/	.	.
.	.	.	32qqAA/	.	.
.	.	.	32qqFF/	.	.
.	.	.	32qqDD/JJJ	.	.
*	*	*	*clefG2	*	*
=47	=47	=47	=47	=47	=47
2.f:/	2.D:\ 2.A:	.	4r	.	.
.	.	.	32qqa/LLL	.	sf <
.	.	.	32qqb-/JJJ	.	.
.	.	.	2at/	.	.
.	.	.	32qqg#X\LLL	.	[
.	.	.	32qqa\	.	.
.	.	.	32qqdd\	.	.
.	.	.	32qqff\	.	.
.	.	.	32qqaa\	.	.
.	.	.	32qqddd\	.	.
.	.	.	32qqfff\	.	.
.	.	.	32qqaaa\JJJ	.	.
4f/	2D\ 2A	.	4aa\	.	.
*	*	*	*clefF4	*	*
.	.	.	32qqAA/LLL	.	.
.	.	.	32qqBB-/JJJ	.	.
4en^</	.	.	2AAt</	.	.
4d^</	4ryy	.	.	.	.
.	.	.	32qqGG#X/LLL	.	.
.	.	.	32qqAA/	.	.
.	.	.	32qqBB-/	.	.
.	.	.	32qqAA/	.	.
.	.	.	32qqFF/	.	.
.	.	.	32qqDD/JJJ	.	.
*	*	*	*clefG2	*	*
!!LO:LB:g=original	!	!	!	!	!
=48	=48	=48	=48	=48	=48
2.D:\ 2.A:	2.ryy	.	4r	.	.
.	.	.	32qqa/LLL	.	<
.	.	.	32qqb-/JJJ	.	.
.	.	.	2at</	.	.
.	.	.	(32qqg#X\LLL	.	[
.	.	.	32qqa\	.	.
.	.	.	32qqdd\	.	.
.	.	.	32qqff\	.	.
.	.	.	32qqaa\	.	.
.	.	.	32qqddd\	.	.
.	.	.	32qqfff\	.	.
.	.	.	32qqaaa\JJJ)	.	.
4A/	2.D\	.	4aa\	.	.
*	*	*	*clefF4	*	*
.	.	.	32qqAA/LLL	.	.
.	.	.	32qqBB-/JJJ	.	.
4f^</	.	.	2AAt</	.	.
4d^</	.	.	.	.	.
*v	*v	*	*	*	*
.	.	32qqGG#X/LLL	.	.
.	.	32qqAA/	.	.
.	.	32qqBB-/	.	.
.	.	32qqAA/	.	.
.	.	32qqFF/	.	.
.	.	32qqDD/JJJ	.	.
=49	=49	=49	=49	=49
2.C#X\ 2.A 2.e-	.	4AAA/	.	sf
*	*	*clefG2	*	*
.	.	32qqa/LLL	.	<
.	.	32qqb-/JJJ	.	.
.	.	2at</	.	.
.	.	(32qqg#X\LLL	.	[
.	.	32qqa\	.	.
.	.	32qqcc#X\	.	.
.	.	32qqee-\	.	.
.	.	32qqaa\	.	.
.	.	32qqccc\	.	.
.	.	32qqeee-\	.	.
.	.	32qqaaa\JJJ)	.	.
2C#:\ 2A: 2e-:	.	4aa'\	.	.
.	.	4a'/	.	.
*	*	*clefF4	*	*
4r	.	4AA/	.	.
*	*	*clefG2	*	*
=50	=50	=50	=50	=50
*^	*	*	*	*
2.D:\ 2.A:	2.ryy	.	4r	.	.
.	.	.	32qqa/LLL	.	.
.	.	.	32qqb-/JJJ	.	.
.	.	.	2at</	.	.
.	.	.	(32qqg#X\LLL	.	.
.	.	.	32qqa\	.	.
.	.	.	32qqdd\	.	.
.	.	.	32qqff\	.	.
.	.	.	32qqaa\	.	.
.	.	.	32qqddd\	.	.
.	.	.	32qqfff\	.	.
.	.	.	32qqaaa\JJJ)	.	.
4A^:/	2.D:\	.	4aa\	.	.
*	*	*	*clefF4	*	*
.	.	.	32qqAA/LLL	.	.
.	.	.	32qqBB-/JJJ	.	.
4A^/	.	.	2AAt</	.	.
4d^/	.	.	.	.	.
*v	*v	*	*	*	*
.	.	32qqGG#X/LLL	.	.
.	.	32qqAA/	.	.
.	.	32qqBB-/	.	.
.	.	32qqAA/	.	.
.	.	32qqFF/	.	.
.	.	32qqDD/JJJ	.	.
*	*	*clefG2	*	*
=51	=51	=51	=51	=51
2.D:\ 2.A: 2.f:	.	4r	.	.
.	.	32qqa/LLL	.	.
.	.	32qqb-/JJJ	.	.
.	.	2at</	.	.
.	.	(32qqg#X\LLL	.	<
.	.	32qqa\	.	.
.	.	32qqdd\	.	.
.	.	32qqff\	.	.
.	.	32qqaa\	.	.
.	.	32qqddd\	.	.
.	.	32qqfff\	.	.
.	.	32qqaaa\JJJ)	.	[
2D\ 2A 2f	.	4aa\	.	.
*	*	*clefF4	*	*
.	.	4AA/	.	sf
.	.	32qqBBn/LLL	.	.
.	.	32qqC/JJJ	.	.
4D^\ 4A-X 4f	.	4BBnyt</	.	.
.	.	32qqAA/LLL	.	.
.	.	32qqBB/JJJ	.	.
!!LO:PB:g=original	!	!	!	!
=52	=52	=52	=52	=52
*	*	*ped	*	*
2.An\ 2.c 2.f	.	4C/	.	.
*	*	*clefG2	*	*
.	.	32qqbn/LLL	.	sf <
.	.	32qqcc/	.	.
.	.	32qqdd/JJJ	.	.
.	.	(2ccT\	.	[
.	.	32qqb\LLL	.	sf
.	.	32qqcc\	.	.
.	.	32qqff\	.	.
.	.	32qqaa\	.	.
.	.	32qqccc\	.	.
.	.	32qqfff\	.	.
.	.	32qqaaa\JJJ	.	.
2C/	.	4cccc'\)	.	.
.	.	4dd'^<\	.	.
.	.	32qqdd/LLL	.	.
.	.	32qqee-/	.	.
.	.	32qqff/JJJ	.	.
4C:\ 4G: 4B-: 4e-:	.	4ee-T\	.	.
.	.	32qqdd/LLL	.	.
.	.	32qqee-/JJJ	.	.
=53	=53	=53	=53	=53
.	.	32qqff/LLL	.	.
.	.	32qqgg/JJJ	.	.
4FF/	.	2.ffT\	.	.
[>2F:\ [2c: [2a:	.	.	.	.
.	.	32qqee-\LLL	.	.
.	.	32qqff\	.	.
.	.	32qqaa\	.	.
.	.	32qqccc\	.	.
.	.	32qqfff\	.	.
*	*	*8va	*	*
.	.	32qqaaa\	.	.
*	*	*	*	*
.	.	32qqcccc\JJJ	.	.
*	*	*	*	*
4F\] 4c] 4a]	.	4ffff\	.	sf
*	*	*X8va	*	*
4r	.	4a'\ [4cc	.	p
4r	.	4a'\ 4cc]	.	.
=54	=54	=54	=54	=54
*	*	*	*	*
4FF/	.	2.a\ 2.cc	.	p
32qqBn/LLL	.	.	.	.
32qqc/	.	.	.	.
32qqd/JJJ	.	.	.	.
*ped	*	*	*	*
2c^<T\	.	.	.	.
(32qqB/LLL	.	.	.	.
32qqc/	.	.	.	.
32qqA/	.	.	.	.
32qqF/JJJ	.	.	.	.
4C/)	.	(4a\ 4cc	.	.
32qqBBn/LLL	.	.	.	.
32qqC/	.	.	.	.
32qqD/JJJ	.	.	.	.
(2C^T</	.	4a\ 4cc	.	pp
.	.	4a\) 4cc 4ff	.	.
32qqBB/LLL	.	.	.	.
32qqC/	.	.	.	.
32qqAA/	.	.	.	.
32qqFF/	.	.	.	.
32qqCC/JJJ	.	.	.	.
=55	=55	=55	=55	=55
4FF/)	.	2.a\ 2.cc 2.aa	.	.
32qqBn/LLL	.	.	.	.
32qqc/	.	.	.	.
32qqd/JJJ	.	.	.	.
2c^<T\	.	.	.	.
(32qqB/LLL	.	.	.	.
32qqc/	.	.	.	.
32qqA/	.	.	.	.
32qqF/JJJ	.	.	.	.
4C/)	.	(4a\ 4cc 4aa	.	.
32qqBBn/LLL	.	.	.	.
32qqC/	.	.	.	.
32qqD/JJJ	.	.	.	.
2C^<T</	.	4a\ 4cc 4ee-	.	.
.	.	4a\) 4cc 4ff	.	.
(32qqBB/LLL	.	.	.	.
32qqC/	.	.	.	.
32qqAA/	.	.	.	.
32qqFF/	.	.	.	.
32qqCC/JJJ	.	.	.	.
!!LO:LB:g=original	!	!	!	!
=56	=56	=56	=56	=56
4FF/)	.	2.a\ 2.cc	.	.
32qqBn/LLL	.	.	.	.
32qqc/	.	.	.	.
32qqd/JJJ	.	.	.	.
2c^<T\	.	.	.	.
(32qqB/LLL	.	.	.	.
32qqc/	.	.	.	.
32qqA/	.	.	.	.
32qqF/JJJ	.	.	.	.
4C/)	.	(4a'\ 4cc 4ff	.	.
32qqBBn/LLL	.	.	.	.
32qqC/	.	.	.	.
32qqD/JJJ	.	.	.	.
2C^T</	.	4a'\ 4cc 4ee-	.	.
.	.	4a'\) 4cc 4ff	.	.
32qqBB/LLL	.	.	.	.
32qqC/	.	.	.	.
32qqAA/	.	.	.	.
32qqFF/	.	.	.	.
*	*below	*	*	*
32qqCC/JJJ	5	.	.	.
*Xped	*	*	*	*
=57	=57	=57	=57	=57
*ped	*	*	*	*
!	!	!LO:TX:a:i:t=ten	!	!
4C^\	.	2.g\ [>2.cc 2.een [2.gg	.	sf
32qqB-/LLL	.	.	.	.
32qqc/	.	.	.	.
32qqd/JJJ	.	.	.	.
2cT\	.	.	.	.
32qqB-/LLL	.	.	.	.
32qqc/	.	.	.	.
32qqG/	.	.	.	.
32qqEn/JJJ	.	.	.	.
4C/	.	4g\ 4cc] 4ee 4gg]	.	.
32qqBBn/LLL	.	.	.	.
32qqC/	.	.	.	.
32qqD/JJJ	.	.	.	.
2CT</	.	4r	.	pp
.	.	4cc\	.	.
32qqBB-y/LLL	.	.	.	.
32qqC/	.	.	.	.
32qqAA/	.	.	.	.
32qqEEn/	.	.	.	.
32qqCC/JJJ	.	.	.	.
*Xped	*	*	*	*
=58	=58	=58	=58	=58
*	*	*^	*	*
*ped	*	*	*	*	*
4BBB-X/ 4BB-X	.	2.f^<\ 2.dd	2.ryy	.	sf f
32qqA/LLL	.	.	.	.	.
32qqB-/	.	.	.	.	.
32qqc/JJJ	.	.	.	.	.
2B-T\	.	.	.	.	.
32qqA/LLL	.	.	.	.	.
32qqB-/	.	.	.	.	.
32qqd/	1	.	.	.	.
32qqB-/	2	.	.	.	.
32qqF/	1	.	.	.	.
32qqD/JJJ	2	.	.	.	.
4BB-/	4	4dd/	2.f\	.	.
32qqAA/LLL	.	.	.	.	.
32qqBB-/	.	.	.	.	.
32qqC/JJJ	.	.	.	.	.
2BB-T</	.	4dd/	.	.	.
.	.	4een/	.	.	.
*	*	*v	*v	*	*
32qqAA/LLL	3	.	.	.
32qqBB-/	1	.	.	.
32qqD/	2	.	.	.
32qqBB-/	.	.	.	.
32qqFF/	1	.	.	.
32qqDD/	2	.	.	.
32qqBBB-/JJJ	4	.	.	.
*Xped	*	*	*	*
=59	=59	=59	=59	=59
!	!	!LO:TX:t=P:problem:LO:N:vis=2	!	!
4FF/	.	[>2.f\ [>2.a 2.cc [2.ff	.	sf f
32qqBn/LLL	.	.	.	.
32qqc/	.	.	.	.
32qqd/JJJ	.	.	.	.
(<2cT\	.	.	.	.
32qqB/LLL	.	.	.	.
32qqc/	.	.	.	.
32qqA/	.	.	.	.
32qqF/JJJ	.	.	.	.
4C/)	.	(4f\] 4a] 4cc 4ff]	.	.
32qqBB-/LLL	.	.	.	.
32qqC/	.	.	.	.
32qqD/JJJ	.	.	.	.
2CT</	.	4a\ 4cc 4een	.	pp
.	.	4a\) 4cc 4ff	.	.
32qqBB-/LLL	.	.	.	.
32qqC/	.	.	.	.
32qqAA/	.	.	.	.
32qqFF/JJJ	.	.	.	.
!!LO:LB:g=original	!	!	!	!
=60	=60	=60	=60	=60
4CC/	.	4g\ 4cc 4een 4gg	.	f
32qqBn/LLL	.	.	.	.
32qqc/	.	.	.	.
!	!	!LO:TX:b:i:t=con passione	!	!
32qqd/JJJ	.	.	.	.
2cT\	.	4cc^:\ 4ee: 4ddd:	.	.
.	.	4cc^\ 4ee 4ccc	.	.
(32qqB/LLL	.	.	.	.
32qqc/	.	.	.	.
32qqG/	.	.	.	.
32qqE-/JJJ	.	.	.	.
4C/)	.	4cc^\ 4ee 4bb-	.	.
32qqBB-/LLL	3	.	.	.
32qqC/	2	.	.	.
32qqD/JJJ	1	.	.	.
2CT</	.	4cc^\ 4ee 4aa	.	.
.	.	4cc^\ 4ee 4gg	.	.
32qqBB-/LLL	3	.	.	.
32qqC/	1	.	.	.
32qqGG/	2	.	.	.
32qqEE-/	3	.	.	.
32qqCC/JJJ	5	.	.	.
=61	=61	=61	=61	=61
*	*	*^	*	*
4AAA/ 4AA	.	2aan\	2cc#X\	.	fp
32qqA/LLL	.	.	.	.	.
32qqG#X/	.	.	.	.	.
32qqA/	.	.	.	.	.
32qqB-/JJJ	.	.	.	.	.
!	!	!	!	!	!LO:DY:b=2
4At\	.	.	.	.	p
32qqG#/LLL	.	.	.	.	.
32qqA/JJJ	.	.	.	.	.
4AA/	5	4ryy	4a\ 4cc# 4een	.	.
*	*	*	*	*above	*
4AAA/ 4AA	.	(4ff/	2a\ 2dd	4	<
32qqG#X/LLL	.	.	.	.	.
32qqA/	.	.	.	.	.
32qqB-/JJJ	.	.	.	.	.
4At\	.	4gg/	.	4	.
(32qqG#/LLL	.	.	.	.	.
32qqA/JJJ	.	.	.	.	.
*	*	*	*	*	*
4AA/)	.	8ff/L	4a\ 4dd	2 3	[ >
.	.	8gg/J)	.	.	]]
=62	=62	=62	=62	=62	=62
4AAA/ 4AA	.	2ryy	2a\ 2cc#X 2aa	.	.
32qqA/LLL	.	.	.	.	.
32qqG#X/	.	.	.	.	.
32qqA/	.	.	.	.	.
32qqB-/JJJ	.	.	.	.	.
4At\	.	.	.	.	.
32qqG#/LLL	.	.	.	.	.
32qqA/JJJ	.	.	.	.	.
4AA/	.	4ryy	4a\ 4cc# 4een	.	<
4AAA/ 4AA	.	(4ff/	2a\ 2dd	.	.
32qqA/LLL	.	.	.	.	.
32qqG#X/	.	.	.	.	.
32qqA/	.	.	.	.	.
32qqB-/JJJ	.	.	.	.	.
4At\	.	4gg/	.	.	.
(32qqG#/LLL	.	.	.	.	.
32qqA/JJJ	.	.	.	.	.
4AA/)	.	8ff/L	4a\ 4dd	.	[ >
.	.	8gg/J)	.	.	]]
=63	=63	=63	=63	=63	=63
4AAA/ 4AA	.	2.cc#X/ 2.aa	4.a\	.	.
32qqA/LLL	.	.	.	.	.
32qqG#X/	.	.	.	.	.
32qqA/	.	.	.	.	.
32qqB-/JJJ	.	.	.	.	.
(<4At\	.	.	.	.	.
.	.	.	4.ryy	.	.
32qqG#/LLL	.	.	.	.	.
32qqA/JJJ	.	.	.	.	.
4AA/)	.	.	.	.	.
4AAA-X/ 4AA-X	.	2.ee-X/ 2.ff#X	2.ccn\	.	pp
*	*below	*	*	*	*
32qqA-X/LLL	2	.	.	.	.
32qqG#/	3	.	.	.	.
32qqA-/	2	.	.	.	.
32qqB-X/JJJ	1	.	.	.	.
4A-yT\	.	.	.	.	.
32qqG#/LLL	3	.	.	.	.
32qqA-/JJJ	2	.	.	.	.
4AA-/	5	.	.	.	.
!!LO:LB:g=original	!	!	!	!	!
=64	=64	=64	=64	=64	=64
*ped	*	*	*	*	*
4GGG/ 4GG	.	2.gg/	2.g\ 2.cc 2.een	.	.
32qqF#X/LLL	.	.	.	.	.
32qqG/	.	.	.	.	.
32qqAn/JJJ	.	.	.	.	.
4GT\	.	.	.	.	.
(32qqF#/LLL	.	.	.	.	.
32qqG/JJJ	.	.	.	.	.
*Xped	*	*	*	*	*
4GG/)	.	.	.	.	.
!	!	!LO:TX:b:i:t=sotto voce	!	!	!
*ped	*	*	*	*	*
4GGG/ 4GG	.	2.bn/ 2.gg	4g\	.	.
32qqF#/LLL	.	.	.	.	.
32qqG/	.	.	.	.	.
32qqA/JJJ	.	.	.	.	.
4GT\	.	.	2ryy	.	.
(32qqF#/LLL	.	.	.	.	.
32qqG/JJJ	.	.	.	.	.
4GG/)	.	.	.	.	.
*Xped	*	*	*	*	*
*	*	*v	*v	*	*
=65	=65	=65	=65	=65
4EEn/ 4En	.	[>2.g\ [>2.b-X [2.cc#X [2.gg	.	sf
32qqd#X/LLL	.	.	.	.
32qqen/	.	.	.	.
32qqfn/JJJ	.	.	.	.
2enyt\	.	.	.	.
(32qqd#/LLL	.	.	.	.
32qqe/	.	.	.	.
32qqc#X/	.	.	.	.
32qqB-X/JJJ	.	.	.	.
4E'\)	.	4g\] 4b-] 4cc#] 4gg]	.	.
4r	.	(4g'\ 4b- 4cc# 4gg	.	p
4r	.	4g'\) 4b- 4cc# 4gg	.	.
=66	=66	=66	=66	=66
!	!	!LO:TX:b:i:t=dolce	!	!
4FFF/ 4FF	.	2.d/ 2.f	.	p
32qqEn/LLL	.	.	.	.
32qqF/	.	.	.	.
32qqG/JJJ	.	.	.	.
2FT\	.	.	.	.
(32qqE/LLL	.	.	.	.
32qqF/	.	.	.	.
32qqD/	.	.	.	.
32qqBB-/JJJ	.	.	.	.
4FF/)	.	4d/ 4f	.	.
32qqEE-/LLL	.	.	.	.
32qqFF/	.	.	.	.
32qqGG/JJJ	.	.	.	.
2FFT</	.	4d/ 4f 4b-	.	.
.	.	4d/ 4f 4b- 4dd	.	.
(32qqEE-/LLL	.	.	.	.
32qqFF/	.	.	.	.
32qqDD/	.	.	.	.
32qqBBB-/	.	.	.	.
32qqFFF/JJJ)	.	.	.	.
=67	=67	=67	=67	=67
*	*	*^	*	*
*	*	*	*	*	*^
!	!	!	!	!	!LO:DY:a	!LO:DY:b
4FF/	.	(2gg^:/	4f:\ 4a: 4cc:	.	sf	pp
32qqEn/LLL	.	.	.	.	.	.
*	*	*	*	*	*v	*v
32qqF/	.	.	.	.	.
32qqG/JJJ	.	.	.	.	.
2FT\	.	.	4ryy	.	.
.	.	4ff/)	4f\ 4a	.	.
(32qqE/LLL	.	.	.	.	.
32qqF/	.	.	.	.	.
32qqC/	.	.	.	.	.
!	!	!LO:TX:b:i:t=riten&colon;	!	!	!
32qqAA/JJJ	.	.	.	.	.
4FF'/)	.	(4ee-/	4f\ 4a	.	.
32qqEE-/LLL	.	.	.	.	.
32qqFF/	.	.	.	.	.
32qqGG/JJJ	.	.	.	.	.
2FFT</	.	4dd/	4f\ 4a	.	.
.	.	4cc/)	4f\ 4a	.	.
*	*	*v	*v	*	*
32qqEE-/LLL	.	.	.	.
32qqFF/	.	.	.	.
32qqCC/	.	.	.	.
32qqBBB-/	.	.	.	.
32qqFFF/JJJ	.	.	.	.
!!LO:LB:g=original	!	!	!	!
=68	=68	=68	=68	=68
4BBB-\ 4BB-	.	4d/ 4b-	.	ff
*	*	*	*below	*
32qqA/LLL	4	32qqa/LLL	1	.
32qqB-/	3	32qqb-/	2	.
!	!	!LO:TX:b:i:t=maestoso	!	!
32qqc/JJJ	1	32qqcc/JJJ	4	.
*ped	*	*	*	*
4.At\	.	4.b-T\	.	.
(64A\LLLL	.	(64a/LLLL	1	.
64B-\	.	64b-/	2	.
64d\	.	64dd/	4	.
64f\	.	64ff/	5	.
64d\	.	64dd/	4	.
64B-\	.	64b-/	2	.
64F\	.	64f/	1	.
64D\JJJJ)	.	64d/JJJJ)	4	.
4BB-/	4	4B-/	2	.
4BBB-^/ 4BB-	.	4b-^\ 4dd 4ff	.	.
4BBB-^/ 4BB-	.	4b-^\ 4dd 4ff 4bb-	.	.
*Xped	*	*	*	*
=69	=69	=69	=69	=69
!	!	!LO:TX:t=P:problem:akcent powyżej i poniżej	!	!
4BBB-^/ 4BB-	.	4b-^\ 4dd 4ff 4aa-X	.	sf
32qqAn/LLL	.	32qqan/LLL	.	.
32qqB-/	.	32qqb-/	.	.
32qqc/JJJ	.	32qqcc/JJJ	.	.
*ped	*	*	*	*
4.B-T\	.	4.b-T\	.	.
(64An\LLLL	.	(64an/LLLL	.	.
64B-\	.	64b-/	.	.
64d\	.	64dd/	.	.
64f\	.	64ff/	.	.
64d\	.	64dd/	.	.
64B-\	.	64b-/	.	.
64F\	.	64f/	.	.
64D\JJJJ)	.	64d/JJJJ)	.	.
4BB-/	.	4B-/	.	.
4BBB-/ 4BB-	.	4a\ 4b-X 4dd 4ff	.	.
4BBB-/ 4BB-	.	4a\ 4b- 4dd 4ff 4aa-	.	.
*Xped	*	*	*	*
=70	=70	=70	=70	=70
4BBB-^/ 4BB-	.	4g^\ 4b- 4ee-X 4gg	.	.
32qqAn/LLL	.	32qqan/LLL	.	.
32qqB-/	.	32qqb-/	.	.
32qqc/JJJ	.	32qqcc/JJJ	.	.
*ped	*	*	*	*
4.B-T\	.	4.b-T\	.	.
(64A\LLLL	.	(64a/LLLL	.	.
64B-\	.	64b-/	.	.
64e-\	.	64ee-/	.	.
64g\	.	64gg/	.	.
64e-\	.	64ee-/	.	.
64B-\	.	64b-/	.	.
64G\	.	64g/	.	.
64E-\JJJJ)	.	64e-/JJJJ	.	.
4BB-/	.	4B-/)	.	.
4BBB-/ 4BB-	.	4g\ 4b- 4ee-	.	sf
4BBB-/ 4BB-	.	4g\ 4b- 4ee- 4gg	.	sf
*Xped	*	*	*	*
=71	=71	=71	=71	=71
4BBB-/ 4BB-	.	4g-X\ 4an 4cc 4ee- 4gg-X	.	sf
32qqA/LLL	.	32qqa/LLL	.	.
32qqB-/	.	32qqb-/	.	.
32qqc/JJJ	.	32qqcc/JJJ	.	.
*ped	*above	*	*	*
4.B-T\	3	4.b-T</	.	.
(64A\LLLL	4	(64a/LLLL	.	.
64B-\	3	64b-/	.	.
64g-X\	1	64gg-X/	.	.
64e-\	2	64ee-/	.	.
64c\	1	64cc/	.	.
64A\	2	64a/	.	.
64G\	3	64g-/	.	.
64E-\JJJJ)	4	64e-/JJJJ)	.	.
*	*below	*	*	*
4BB-/	5	4B-/	.	.
4BBB-/ 4BB-	.	4g-^\ 4a 4cc 4ee-	.	.
4BBB-/ 4BB-	.	4e-^:\ 4a: 4cc: 4ee-: 4gg-:	.	.
*Xped	*	*	*	*
!!LO:PB:g=original	!	!	!	!
=72	=72	=72	=72	=72
*	*	*^	*	*
4BBB-/ 4BB-	.	4b-/ 4dd 4ff	4d\	.	.
32qqA/LLL	.	32qqa/LLL	.	.	.
32qqB-/	.	32qqb-/	.	.	.
32qqc/JJJ	.	32qqcc/JJJ	.	.	.
4.B-T\	.	4.b-T/	1ryy	.	.
!LO:N:vis=32	!	!LO:N:vis=32	!	!	!
(64A\LLLL	.	(64a/LLLL	.	.	.
!LO:N:vis=32	!	!LO:N:vis=32	!	!	!
64B-\	.	64b-/	.	.	.
!LO:N:vis=32	!	!LO:N:vis=32	!	!	!
64d\	.	64dd/	.	.	.
!LO:N:vis=32	!	!LO:N:vis=32	!	!	!
64f\	.	64ff/	.	.	.
!LO:N:vis=32	!	!LO:N:vis=32	!	!	!
64d\	.	64dd/	.	.	.
!LO:N:vis=32	!	!LO:N:vis=32	!	!	!
64B-\	.	64b-/	.	.	.
!LO:N:vis=32	!	!LO:N:vis=32	!	!	!
64F\	.	64f/	.	.	.
!LO:N:vis=32	!	!LO:N:vis=32	!	!	!
64D\JJJJ)	.	64d/JJJJ)	.	.	.
4BB-'/	.	4B-/	.	.	.
4BBB-/ 4BB-	.	4b-^\ 4dd 4ff 4bb-	.	.	.
4BBB-/ 4BB-	.	4dd^\ 4ff 4bb- 4ddd	4ryy	.	.
*	*	*v	*v	*	*
=73	=73	=73	=73	=73
4DD/ 4AA 4F#X	.	4dd\ 4ff#X 4aa 4ddd	.	.
32qqd/LLL	1	32qqdd/LLL	1	.
32qqc#X/	3	32qqcc#X/	2	.
32qqd/	1	32qqdd/	1	.
32qqe-X/JJJ	2	32qqee-X/JJJ	3	.
*	*	*	*above	*
4.dt\	.	4.ddt\	1	.
*Xtuplet	*	*Xtuplet	*below	*
48c#\LLL	.	48cc#/LLL	2	.
48d\	.	48dd/	1	.
48f#X\	.	48ff#/	4	.
48d\	.	48dd/	2	.
48A\	.	48a/	1	.
48F#\JJJ	.	48f/JJJ	4	.
8D\	.	8d/	2	.
32D\LLL	.	8d^\L 8dd	.	.
32C#X\	.	.	.	.
32D\	.	.	.	.
32E-X\JJJ	.	.	.	.
2Dt\	.	8en^\ 8een	.	.
.	.	8f#X^\ 8ff#	.	.
.	.	8g^\ 8gg	.	.
.	.	8a^\J 8aa	.	.
32qqC#/LLL	.	.	.	.
32qqD/	.	.	.	.
32qqAA/	.	.	.	.
32qqFF#X/	.	.	.	.
32qqDD/JJJ	.	.	.	.
=74	=74	=74	=74	=74
4GGG/ 4GG	.	4b-\ 4bb-	.	.
32qqd/LLL	.	32qqdd/LLL	.	.
32qqc#X/	.	32qqcc#X/	.	.
32qqd/	.	32qqdd/	.	.
32qqe-/JJJ	.	32qqee-/JJJ	.	.
4.dt\	.	4.ddt\	.	.
!LO:N:vis=32	!	!LO:N:vis=32	!	!
(64c#\LLLL	.	(64cc#/LLLL	.	.
!LO:N:vis=32	!	!LO:N:vis=32	!	!
64d\	.	64dd/	.	.
!LO:N:vis=32	!	!LO:N:vis=32	!	!
64g\	.	64gg/	.	.
!LO:N:vis=32	!	!LO:N:vis=32	!	!
64d\	.	64dd/	.	.
!LO:N:vis=32	!	!LO:N:vis=32	!	!
64B-\	.	64b-/	.	.
!LO:N:vis=32	!	!LO:N:vis=32	!	!
64G\	.	64g/	.	.
!LO:N:vis=32	!	!LO:N:vis=32	!	!
64D\	.	64d/	.	.
!LO:N:vis=32	!	!LO:N:vis=32	!	!
64BB-\JJJJ)	.	64B-/JJJJ)	.	.
4GG/	.	4G/	.	.
4GG\ 4BB- 4D 4G	.	4d/ 4g 4b- 4dd	.	sf
4GG\ 4BB- 4D 4G	.	4d:/ 4g: 4b-: 4dd: 4gg:	.	sf
!!LO:LB:g=original	!	!	!	!
=75	=75	=75	=75	=75
4CC/ 4C	.	4en\ 4g 4b-X 4cc 4een	.	f
32qqBn/LLL	3	32qqbn/LLL	.	.
32qqc/	2	32qqcc/	.	.
32qqd/JJJ	1	32qqdd/JJJ	.	.
4.cT\	.	4.ccT\	.	.
*	*above	*	*	*
56B\LLL	3	56bny/LLL	2	.
56c\	2	56cc/	3	.
!LO:SIC:o=56e-\	!	!	!	!
32en	.	56ee/	5	.
56c\	1	56cc/	4	.
56B\	2	56b-X/	3	.
56G\	3	56g/	2	.
!LO:SIC:o=56E-\JJJ	!	!	!	!
32En	4	56e/JJJ	1	.
*	*below	*	*	*
8C/	5	8c/	2	.
24BBn/LL	.	8c^/L 8cc	.	.
24C/	.	.	.	.
24D/JJ	.	.	.	.
2CT</	.	8d^/ 8dd	.	.
.	.	8en^/ 8een	.	.
.	.	8f^/ 8ff	.	.
.	.	8g^/J 8gg	.	.
32qqBB/LLL	.	.	.	.
32qqC/	.	.	.	.
32qqGG/	.	.	.	.
32qqEEn/	.	.	.	.
32qqCC/JJJ	.	.	.	.
=76	=76	=76	=76	=76
4FF/	.	4f\ 4ff	.	.
32qqen/LLL	.	32qqeen/LLL	.	.
32qqf/	.	32qqff/	.	.
32qqg/JJJ	.	32qqgg/JJJ	.	.
4.fT\	.	4.ffT\	.	.
*	*	*	*	*^
!	!	!	!	!LO:DY:a	!LO:HP:b=2
(48eny\LLL	.	(48ee\LLL	.	>	>
48f\	.	48ff\	.	.	.
48a\	.	48aa\	.	.	.
48f\	.	48ff\	.	.	.
48c\	.	48cc\	.	]	]
48A\JJJ)	.	48a\JJJ)	.	.	.
4F\	.	4f/	.	.	.
4r	.	4f'\ 4ff	.	p	.
4r	.	4f'\ 4ff	.	.	.
*	*	*	*	*v	*v
=77||	=77||	=77||	=77||	=77||
*k[b-e-a-d-g-]	*	*k[b-e-a-d-g-]	*	*
*	*	*ped	*	*
!LO:TX:a:t=les 2	!	!	!	!
4D-\	.	2.ff\ 2.aa-	.	pp
*	*above	*	*	*
32qqgn>\LLL	3	.	.	.
32qqa->\	2	.	.	.
32qqb->\JJJ	1	.	.	.
2a->T>\	.	.	.	.
32qqg>\LLL	3	.	.	.
32qqa->\	2	.	.	.
32qqb->\	1	.	.	.
32qqa->\	.	.	.	.
32qqf>\	1	.	.	.
32qqd->\JJJ	2	.	.	.
*	*	*	*	*
8A-'\L	4	(4ff'\ 4aa-	.	.
8AA-'\	5	.	.	.
8D-'\	3	4ff'\ 4aa-	.	.
8AA-'\	5	.	.	.
8F'\	2	4ff'\) 4aa- 4ddd-	.	.
8D-'\J	3	.	.	.
!!LO:LB:g=original	!	!	!	!
=78	=78	=78	=78	=78
4A-\	.	2.ff\ 2.aa- 2.fff	.	.
32qqgn>\LLL	.	.	.	.
32qqa->\	.	.	.	.
32qqb->\JJJ	.	.	.	.
2a->T>\	.	.	.	.
32qqg>\LLL	.	.	.	.
32qqa->\	.	.	.	.
32qqb->\	.	.	.	.
32qqa->\	.	.	.	.
32qqf>\	.	.	.	.
32qqd->\JJJ	.	.	.	.
8A-'\L	.	(4ff\ 4aa- 4fff	.	.
8AA-'\	.	.	.	.
8D-'\	.	4ff\ 4aa- 4ccc	.	.
8AA-'\	.	.	.	.
8F'\	.	4ff\) 4aa- 4ddd-	.	.
8D-'\J	.	.	.	.
=79	=79	=79	=79	=79
4A-\	.	2.ff\ 2.aa-	.	.
32qqgn>\LLL	.	.	.	.
32qqa->\	.	.	.	.
32qqb->\JJJ	.	.	.	.
2a->T>\	.	.	.	.
32qqg>\LLL	.	.	.	.
32qqa->\	.	.	.	.
32qqb->\	.	.	.	.
32qqa->\	.	.	.	.
32qqf>\	.	.	.	.
32qqd->\JJJ	.	.	.	.
8A-'\L	.	(4ff'\ 4aa-	.	.
8AA-'\	.	.	.	.
8D-'\	.	4ff'\ 4aa- 4ccc	.	.
8AA-'\	.	.	.	.
8F'\	.	4ff'\) 4aa- 4ddd-	.	.
8D-'\J	.	.	.	.
=80	=80	=80	=80	=80
4AA-\ 4A-	.	2.ee-\ [>2.aa- [2.ccc 2.eee-	.	fp
32qqgn>\LLL	.	.	.	.
32qqa->\	.	.	.	.
32qqb->\JJJ	.	.	.	.
2a->T>\	.	.	.	.
32qqg>\LLL	3	.	.	.
32qqa->\	2	.	.	.
32qqcc>\	1	.	.	.
32qqa->\	2	.	.	.
32qqe->\	4	.	.	.
32qqc>\JJJ	1	.	.	.
8A-'\L	2	4ee-\ 4aa-] 4ccc] 4eee-	.	.
8AA-'\	.	.	.	.
8C'\	.	4ryy	.	.
8AA-'\	.	.	.	.
8E-'\	.	4aa-\	.	.
8C'\J	.	.	.	.
=81	=81	=81	=81	=81
*	*	*^	*	*
4GG-\ 4G-	.	2bb-/	2dd-\	.	sf
32qqan>\LLL	.	.	.	.	.
32qqb->\	.	.	.	.	.
32qqcc>\JJJ	.	.	.	.	.
2b->T>\	.	.	.	.	.
.	.	4ryy	4ryy	.	.
32qqa>\LLL	3	.	.	.	.
32qqb->\	2	.	.	.	.
32qqdd->\	1	.	.	.	.
32qqb->\	2	.	.	.	.
32qqg->\JJJ	3	.	.	.	.
8d-'\L	5	(4bb-/	4dd-\	.	.
8GG-'\	.	.	.	.	.
8BB-'\	.	4bb-/	2dd-\	.	.
8GG-'\	.	.	.	.	.
8G-'\	.	4aa-/)	.	.	.
8GG-'\J	.	.	.	.	.
!LO:LB:g=original	!	!	!	!	!
=82	=82	=82	=82	=82	=82
!	!	!LO:N:vis=2	!	!	!
4D-\	.	[2.ff/ [2.aa- 2.ddd-	4dd-\	.	.
32qqgn>\LLL	4	.	.	.	.
32qqa->\	3	.	.	.	.
32qqb->\JJJ	1	.	.	.	.
2a->T>\	3	.	1ryy	.	.
32qqg>\LLL	1	.	.	.	.
32qqa->\	3	.	.	.	.
32qqdd->\	1	.	.	.	.
32qqa->\	3	.	.	.	.
32qqf>\	1	.	.	.	.
32qqd->\JJJ	2	.	.	.	.
8A-'\L	4	4ff\] 4aa-] 4ddd-	.	.	.
8AA-'\	.	.	.	.	.
8D-'\	.	4ff\ 4aa- 4ccc	.	.	.
8AA-'\	.	.	.	.	.
8F'\	.	4ff\ 4aa- 4ddd-	4ryy	.	.
8D-'\J	.	.	.	.	.
*	*	*v	*v	*	*
=83	=83	=83	=83	=83
*	*	*8va	*	*
*	*	*^	*	*
4AA-\	.	4eee-/	[>2.gg-X\ [>2.ccc 2.eee-	.	.
*clefG2	*	*	*	*	*
32qqgn/LLL	.	.	.	.	.
32qqa-/	.	.	.	.	.
32qqb-/JJJ	.	.	.	.	.
2a-T\	.	4bbb-^/	.	.	.
.	.	4aaa-^/	.	.	.
*	*below	*	*	*	*
32qqcc/LLL	1	.	.	.	.
32qqa-/	2	.	.	.	.
32qqe-/	4	.	.	.	.
32qqc/JJJ	1	.	.	.	.
*clefF4	*	*	*	*	*
4A-\	.	4ggg-/	2gg-\] 2ccc] 2eee-	.	>
32qqGn/LLL	.	.	.	.	.
32qqA-/	.	.	.	.	.
32qqB-/JJJ	.	.	.	.	.
2A-T\	.	4fff^/	.	.	.
.	.	4eee-^/	4gg-\ 4ccc	.	.
32qqc/LLL	1	.	.	.	.
32qqA-/	2	.	.	.	.
32qqE-/	4	.	.	.	.
32qqC/	1	.	.	.	.
32qqAA-/JJJ	3	.	.	.	]]
=84	=84	=84	=84	=84	=84
4FF\	.	2ff\ 2aa- 2fff	2.ryy	.	p
32qqF/LLL	.	.	.	.	.
32qqEn/	.	.	.	.	.
32qqF/	.	.	.	.	.
32qqG-X/JJJ	.	.	.	.	.
4Ft\	.	.	.	.	.
32qqE/LLL	.	.	.	.	.
32qqF/JJJ	.	.	.	.	.
*	*	*X8va	*	*	*
4FF/	.	4f\ 4a- 4cc	.	.	.
4FF/ 4F	.	2f\ 2b-	(>4dd-/	.	.
32qqF/LLL	.	.	.	.	.
32qqE/	.	.	.	.	.
32qqF/	.	.	.	.	.
32qqG-/JJJ	.	.	.	.	.
4Ft\	.	.	4ee-/	.	.
32qqE/LLL	.	.	.	.	.
32qqF/JJJ	.	.	.	.	.
4FF/	.	4f\ 4b-	8dd-/L	.	.
.	.	.	8ee-/J)	.	.
=85	=85	=85	=85	=85	=85
4FF/	.	2f\ 2an 2ff	2.ryy	.	.
32qqF/LLL	.	.	.	.	.
32qqEn/	.	.	.	.	.
32qqF/	.	.	.	.	.
32qqG-X/JJJ	.	.	.	.	.
4Ft\	.	.	.	.	.
32qqE/LLL	.	.	.	.	.
32qqF/JJJ	.	.	.	.	.
4FF'/	.	(4f\ 4a 4cc	.	.	.
4FF'/ 4F	.	4dd-/	2f\ 2b-	.	.
32qqF/LLL	.	.	.	.	.
32qqE/	.	.	.	.	.
32qqF/	.	.	.	.	.
32qqG-/JJJ	.	.	.	.	.
(<4Ft\	.	4ee-/	.	.	.
32qqE/LLL	.	.	.	.	.
32qqF/JJJ	.	.	.	.	.
4FF/)	.	8dd-/L	4f\ 4b-	.	.
.	.	8ee-/J)	.	.	.
*	*	*v	*v	*	*
!!LO:LB:g=original	!	!	!	!
=86	=86	=86	=86	=86
4FF/	.	(2.f\ 2.an 2.ff	.	.
32qqF/LLL	.	.	.	.
32qqEn/	.	.	.	.
32qqF/	.	.	.	.
!LO:TX:a:i:t=rallent	!	!	!	!
32qqG-X/JJJ	.	.	.	.
4Ft\	.	.	.	.
32qqE/LLL	.	.	.	.
32qqF/JJJ	.	.	.	.
4FF'/	.	.	.	.
4EEn/ 4Eny	.	2.f#X\) 2.a#X [2.ff#X	.	.
32qqE/LLL	.	.	.	.
32qqD#X/	.	.	.	.
32qqE/	.	.	.	.
32qqF#X/JJJ	.	.	.	.
4ET\	.	.	.	.
32qqD#/LLL	.	.	.	.
32qqE/JJJ	.	.	.	.
4EE/	.	.	.	.
=87	=87	=87	=87	=87
*	*	*^	*	*
!	!	!LO:N:vis=2	!	!	!
4DD#X/ 4D#X	.	2.f#X\ 2.bn 2.ff#X]	2.ryy	.	.
32qqC##X/LLL	.	.	.	.	.
32qqD#/	.	.	.	.	.
32qqEn/JJJ	.	.	.	.	.
4D#t\	.	.	.	.	.
32qqC##/LLL	.	.	.	.	.
32qqD#/JJJ	.	.	.	.	.
4DD#/	.	.	.	.	.
4CCn/ 4Cn	.	(4ffn/	2fn\ 2an	.	.
32qqBBn/LLL	.	.	.	.	.
32qqC/	.	.	.	.	.
!	!	!LO:TX:b:i:t=espres	!	!	!
32qqDn/JJJ	.	.	.	.	.
4CT</	.	4ee-X/	.	.	.
32qqBB/LLL	.	.	.	.	.
32qqC/JJJ	.	.	.	.	.
4FFn/	.	4cc/)	4e-\ 4a	.	.
*	*	*v	*v	*	*
*kcancel	*	*kcancel	*	*
=88||	=88||	=88||	=88||	=88||
*k[b-]	*	*k[b-]	*	*
!!LO:TX:t=P:problem:kasowniki po bemolu	!	!	!	!
!	!	!LO:TX:a:B:t=a tempo brillante	!	!
4BBB-/ 4BB-	.	8d/L 8b-	.	.
.	.	8fTT</J	.	.
*ped	*	*	*	*
4D\ 4F	.	[2fttt/	.	.
4F\ 4B-	.	.	.	.
4B-\ 4d	.	2.fttt/]	.	<
4F\ 4B-	.	.	.	.
4D\ 4F	.	.	.	.
.	.	32qqen/LLL	.	[
.	.	32qqf/	.	.
.	.	32qqg/	.	.
.	.	32qqf/	.	.
.	.	32qqd/	.	.
.	.	32qqf/	.	.
.	.	32qqb-/	.	.
.	.	32qqdd/	.	.
.	.	32qqff/	.	.
.	.	32qqbb-/JJJ	.	[[
=89	=89	=89	=89	=89
4BBB-/ 4BB-	.	(4dd\ 4ddd	.	.
32qqen/LLL	3	.	.	.
32qqf/	2	.	.	.
32qqg/JJJ	1	.	.	.
2fT\	2	4ee\ 4eee	.	.
.	.	4dd\ 4ddd	.	.
32qqe/LLL	3	.	.	.
32qqf/	1	.	.	.
32qqd/	2	.	.	.
32qqB-/JJJ	3	.	.	.
*Xped	*	*	*	*
4F'\	.	4cc\ 4ccc	.	.
32qqE/LLL	.	.	.	.
32qqF/	.	.	.	.
32qqG/JJJ	.	.	.	.
(<2FT\	.	4b-\ 4bb-	.	.
.	.	4cc\) 4ccc	.	.
32qqE/LLL	.	.	.	.
32qqF/	.	.	.	.
32qqC/	.	.	.	.
32qqAA/	.	.	.	.
32qqFF/JJJ)	.	.	.	.
!!LO:LB:g=original	!	!	!	!
=90	=90	=90	=90	=90
4BBB-/ 4BB-	.	16dd\KL 16ddd	.	.
.	.	8.ffTT\J	.	.
*ped	*	*	*	*
4D\ 4F	.	[2ffttt\	.	.
4F\ 4B-	.	.	.	.
4B-\ 4d	.	2.ffttt\]	.	.
4F\ 4B-	.	.	.	.
4D\ 4F	.	.	.	.
.	.	32qqeen/LLL	1	.
.	.	32qqff/	2	.
.	.	32qqbb-/	1	<
.	.	32qqddd/	5	.
.	.	32qqbb-/	.	.
.	.	32qqff/	.	.
.	.	32qqdd/	.	.
.	.	32qqb-/	.	.
.	.	32qqf/	.	.
.	.	32qqd/	.	.
.	.	32qqf/	.	.
.	.	32qqb-/	.	.
.	.	32qqdd/	.	.
.	.	32qqff/	.	.
.	.	32qqbb-/JJJ	.	[[
=91	=91	=91	=91	=91
4BBB-\ 4BB-	.	(4dd\ 4ddd	.	f
32qqcn/LLL	.	.	.	.
32qqd/	.	.	.	.
32qqe/JJJ	.	.	.	.
2fT\	.	4ff\ 4fff	.	.
.	.	8ee\L 8eee	.	.
.	.	8dd\J 8ddd	.	.
32qqe/LLL	.	.	.	.
32qqf/	.	.	.	.
32qqc/	.	.	.	.
32qqB-/JJJ	.	.	.	.
4F\	.	4cc\ 4ccc	.	.
32qqEn/LLL	.	.	.	.
32qqF/	.	.	.	.
32qqG/JJJ	.	.	.	.
2FT\	.	4b-\ 4bb-	.	.
.	.	4cc\) 4ccc	.	.
32qqE/LLL	.	.	.	.
32qqF/	.	.	.	.
32qqC/	.	.	.	.
32qqAA/	.	.	.	.
32qqFF/JJJ	.	.	.	.
=92	=92	=92	=92	=92
4DD\ 4D	.	2dd\ 2ddd	.	sf
32qqd/LLL	.	.	.	.
32qqc#X/	.	.	.	.
32qqd/	.	.	.	.
32qqe/JJJ	.	.	.	.
4dT\	.	.	.	.
32qqc#/LLL	.	.	.	.
32qqd/JJJ	.	.	.	.
4F#X\	.	4a\ 4aa	.	.
!	!	!LO:TX:b:t=cres_:dur=7q2h:ext=ud:problem:text with extention lines 	!	!
4GG\ 4G	.	4b-\ 4bb-	.	<
32qqd/LLL	.	.	.	.
32qqc#X/	.	.	.	.
32qqd/	.	.	.	.
32qqe/JJJ	.	.	.	.
4dT\	.	4b-\ 4bb-	.	.
32qqc#/LLL	.	.	.	.
32qqd/JJJ	.	.	.	.
4G\	.	4dd\ 4ddd	.	.
=93	=93	=93	=93	=93
4AA\ 4A	.	2ffn\ 2fffn	.	.
32qqen/LLL	.	.	.	.
32qqf/	.	.	.	.
32qqg/JJJ	.	.	.	.
4fT\	.	.	.	.
32qqe/LLL	.	.	.	.
32qqf/JJJ	.	.	.	.
4A\	.	4cc\ 4ccc	.	.
4BB-\ 4B-	.	4dd\ 4ddd	.	.
32qqe/LLL	.	.	.	.
32qqf/	.	.	.	.
32qqg/JJJ	.	.	.	.
4fT\	.	4dd\ 4ddd	.	.
32qqe/LLL	.	.	.	.
32qqf/JJJ	.	.	.	.
4B-\	.	4ff\ 4fff	.	[[
!!LO:PB:g=original	!	!	!	!
=94	=94	=94	=94	=94
*k[b-e-]	*	*k[b-e-]	*	*
*	*	*8va	*	*
!	!	!LO:TX:a:i:t=Piu stretto.	!	!
4BBBny\ 4BBn	.	2.aa-X\ 2.fff 2.aaa-X	.	ff
14Bny\LL	.	.	.	.
14f>\	.	.	.	.
14a>\	.	.	.	.
14dd>\	.	.	.	.
14a>\	.	.	.	.
14f>\	.	.	.	.
14B\JJ	.	.	.	.
4CC\ 4C	.	2.gg\ 2.eeen 2.ggg	.	.
14c\LL	.	.	.	.
14en>\	.	.	.	.
14g>\	.	.	.	.
14cc>\	.	.	.	.
14g>\	.	.	.	.
14e>\	.	.	.	.
14c\JJ	.	.	.	.
=95	=95	=95	=95	=95
4AAAn\ 4AAn	.	2.gg-X\ 2.eee- 2.ggg-X	.	.
14A\LL	.	.	.	.
14e-X>\	.	.	.	.
14g>\	.	.	.	.
14cc>\	.	.	.	.
14g>\	.	.	.	.
14e->\	.	.	.	.
14A\JJ	.	.	.	.
4BBB-X\ 4BB-X	.	2.ff\ 2.ddd 2.fff	.	.
14B-\LL	.	.	.	.
14d\	.	.	.	.
14f>\	.	.	.	.
14b->\	.	.	.	.
14f>\	.	.	.	.
14d\	.	.	.	.
14B-\JJ	.	.	.	.
*	*	*X8va	*	*
=96	=96	=96	=96	=96
.	.	8qff/ 8qfff	.	.
*	*	*ped	*	*
4EE-\ 4E-	.	(4ee-\ 4eee-	.	.
24E-\LL	.	4g\ 4gg	.	.
24G\	.	.	.	.
24c\	.	.	.	.
24e-\	.	.	.	.
24c\	.	.	.	.
24G\JJ	.	.	.	.
4E-\	.	4a\) 4aa	.	.
*	*	*Xped	*	*
4FF\ 4F	.	(2b-\ 2bb-	.	.
24F\LL	.	.	.	.
24B-\	.	.	.	.
24d\	.	.	.	.
24f\	.	.	.	.
24d\	.	.	.	.
24B-\JJ	.	.	.	.
4F\	.	8d/L 8dd	.	.
.	.	8e-/J) 8ee-	.	.
!!LO:LB:g=original	!	!	!	!
=97	=97	=97	=97	=97
*	*	*^	*	*
*ped	*	*	*	*	*
!	!	!	!	!	!LO:HP:t=decres.
4FF\	.	2.f:/ 2.a: 2.cc: 2.ff:	2ryy	.	>
32qqEn/LLL	.	.	.	.	.
32qqF/	.	.	.	.	.
32qqG/JJJ	.	.	.	.	.
!LO:N:vis=2:xstem	!	!	!	!	!
2FT\	.	.	.	.	.
.	.	.	4ff/	.	.
32qqE/LLL	.	.	.	.	.
32qqF/	.	.	.	.	.
32qqC/	.	.	.	.	.
32qqAA/JJJ	.	.	.	.	.
4FF/	.	2f\ 2a	4ee-X/	.	p
32qqEE-/LLL	.	.	.	.	.
32qqFF/	.	.	.	.	.
32qqGG/JJJ	.	.	.	.	.
2FFT</	.	.	4dd/	.	.
.	.	4a/ 4cc	4ryy	.	.
*	*	*v	*v	*	*
32qqEE-/LLL	.	.	.	.
32qqFF/	.	.	.	.
32qqCC/	.	.	.	.
32qqAAA/	.	.	.	.
32qqFFF/JJJ	.	.	.	.
*Xped	*	*	*	*
=98	=98	=98	=98	=98
*	*	*ped	*	*
2BBB-/ 2BB-	.	8d/L 8b-	.	.
.	.	[8fT</J	.	.
!	!	!LO:TX:b:i:t=marcato.	!	!
.	.	2f/_	.	.
4r	.	.	.	.
4BB-^:\ 4D: 4F:	.	2.f/_	.	.
4BB-^:\ 4D: 4F:	.	.	.	.
!LO:TX:t=P:problem:sf i odwrócony akcent powyżej	!	!	!	!
4BB-^:\ 4D: 4F: 4B-:	.	.	.	sf
=99	=99	=99	=99	=99
*^	*	*	*	*
2.d:/	4BB-:\ 4F: 4B-:	.	(2.f/]	.	sf
.	1ryy	.	.	.	.
.	.	.	32qqen/LLL	.	.
.	.	.	32qqf/	.	.
.	.	.	32qqg/	.	.
.	.	.	32qqf/	.	.
.	.	.	32qqd/	.	.
.	.	.	32qqf/	.	.
.	.	.	32qqb-/	.	.
.	.	.	32qqdd/	.	.
.	.	.	32qqff/	.	.
.	.	.	32qqbb-/	.	.
.	.	.	32qqddd/JJJ)	.	.
*	*	*	*Xped	*	*
4FF/	.	.	4cc\ 4ccc	.	.
32qqcn/LLL	.	.	.	.	.
32qqf/	.	.	.	.	.
32qqg/JJJ	.	.	.	.	.
2fT\	.	.	(4b-\ 4bb-	.	.
.	4ryy	.	4cc\) 4ccc	.	.
32qqe-/LLL	.	.	.	.	.
32qqf/	.	.	.	.	.
32qqc/	.	.	.	.	.
32qqA/	.	.	.	.	.
32qqF/JJJ	.	.	.	.	.
!!LO:LB:g=original	!	!	!	!	!
=100	=100	=100	=100	=100	=100
*	*	*	*ped	*	*
4BB-\ 4B-	4ryy	.	8dd\L 8ddd	.	.
.	.	.	[8ffTT\J	.	.
2ryy	2ryy	.	2ffttt\_	.	.
4B-/	2BB-\	.	2.ffttt\]	.	.
4A-X^/ 4B- 4d	.	.	.	.	.
4A-^>/ 4B- 4f	4ryy	.	.	.	.
*	*	*	*Xped	*	*
=101	=101	=101	=101	=101	=101
*	*^	*	*	*	*
*ped	*	*	*	*	*	*
2e-/	2.BB-\	4G/ 4B-	.	(2.ggT\	.	sf
.	.	1ryy	.	.	.	.
*Xped	*	*	*	*	*	*
4d/	.	.	.	.	.	.
.	.	.	.	32qqgg\LLL	.	.
.	.	.	.	32qqaa\	.	.
.	.	.	.	32qqgg\	.	.
.	.	.	.	32qqff#X\	.	.
.	.	.	.	32qqgg\	.	.
.	.	.	.	32qqccc\	.	.
.	.	.	.	32qqeee-\	.	.
.	.	.	.	32qqggg\JJJ	.	.
*ped	*	*	*	*	*	*
4F^:/ 4An: 4c:	2.BB-:\	.	.	2.aat\)	.	.
4B-^/	.	.	.	.	.	.
4c^/	.	4ryy	.	.	.	.
.	.	.	.	(32qqgg#X/LLL	.	.
.	.	.	.	32qqaa/	.	.
.	.	.	.	32qqccc/	.	.
.	.	.	.	32qqeee-/	.	.
*	*	*	*	*8va	*	*
.	.	.	.	32qqfffny/	.	.
.	.	.	.	32qqaaa/	.	.
.	.	.	.	32qqcccc/	.	.
.	.	.	.	32qqeeee-/	.	.
.	.	.	.	32qqffff/JJJ)	.	.
*Xped	*	*	*	*X8va	*	*
=102	=102	=102	=102	=102	=102	=102
*	*	*	*	*ped	*	*
!	!	!	!	!LO:TX:a:t=loco	!	!
!	!	!	!	!LO:N:vis=2	!	!
4BBB-\ 4BB-	2.ryy	2.ryy	.	[2.bb-TT\	.	.
4BB-\ 4D 4F	.	.	.	.	.	.
4D\ 4F 4B-	.	.	.	.	.	.
2.d/	4F\ 4B-	2BB-\	.	2.bb-ttt\]	.	.
.	2ryy	.	.	.	.	.
.	.	4ryy	.	.	.	.
*v	*v	*v	*	*	*	*
.	.	32qqaa/LLL	.	.
.	.	32qqbb-/	.	.
.	.	32qqddd/	.	.
.	.	32qqbb-/	.	.
.	.	32qqff/	.	.
.	.	32qqdd/	.	.
.	.	32qqb-/	.	.
.	.	32qqf/	.	.
.	.	32qqd/	.	.
.	.	32qqB-/	.	.
.	.	32qqd/	.	.
.	.	32qqf/	.	.
.	.	32qqb-/	.	.
.	.	32qqdd/	.	.
.	.	32qqff/	.	.
.	.	32qqbb-/JJJ	.	.
=103	=103	=103	=103	=103
!	!	!LO:N:vis=2	!	!
4BBB-\ 4BB-	.	[2.dddtt\	.	.
4D\ 4F 4B-	.	.	.	.
4F\ 4B- 4d	.	.	.	.
2F\ 2B- 2d 2f	.	2.dddttt\]	.	.
4r	.	.	.	.
.	.	32qqccc#X/LLL	2	.
.	.	32qqddd/	3	.
.	.	32qqfff/	5	.
.	.	32qqddd/	3	.
.	.	32qqbb-/	2	.
.	.	32qqff/	1	.
.	.	32qqdd/	3	.
.	.	32qqb-/	2	.
.	.	32qqf/	1	.
.	.	32qqd/	3	.
.	.	32qqB-/	2	.
.	.	32qqd/	1	.
.	.	32qqf/	.	.
.	.	32qqb-/	.	.
.	.	32qqdd/	.	.
.	.	32qqff/	.	.
.	.	32qqbb-/	.	.
.	.	32qqddd/	1	.
.	.	32qqfff/JJJ	.	.
!!LO:LB:g=original	!	!	!	!
=104	=104	=104	=104	=104
*	*	*8va	*	*
!	!	!LO:N:vis=2	!	!
4BBB-\ 4BB-	.	[2.bbb-TT\	.	.
4D\ 4F 4B- 4d	.	.	.	.
4F\ 4B- 4d 4f	.	.	.	.
2B->\ 2d> 2f> 2b->	.	2.bbb-\]	.	.
4r	.	.	.	.
*	*	*	*	*
.	.	32qqaaa/LLL	.	.
.	.	32qqbbb-/	.	.
.	.	32qqcccc/	.	.
.	.	32qqbbb-/	.	.
.	.	32qqdddd/	.	.
.	.	32qqbbb-/	.	.
.	.	32qqfff/	.	.
.	.	32qqddd/	.	.
*	*	*	*	*
.	.	32qqbbb-/	.	.
.	.	32qqfff/	.	.
.	.	32qqddd/	.	.
.	.	32qqbb-/	.	.
.	.	32qqff/	.	.
.	.	32qqb-/	.	.
.	.	32qqdd/	.	.
.	.	32qqff/	.	.
.	.	32qqbb-/	.	.
.	.	32qqddd/	.	.
.	.	32qqfff/	.	.
.	.	32qqbbb-/	.	.
.	.	32qqdddd/	.	.
.	.	32qqffff/	.	.
.	.	32qqbbbb-/JJJ	.	.
*	*	*X8va	*	*
=105	=105	=105	=105	=105
*	*	*8va	*	*
4BBB-/ 4BB-	.	([2.ddddt\	.	.
4B->\ 4d> 4f> 4b->	.	.	.	.
4d>\ 4f> 4b-> 4dd>	.	.	.	.
4f>\ 4b-> 4dd> 4ff>	.	4dddd\]	.	sf
4r	.	32cccc#X/LLL	2	.
.	.	32dddd/	1	.
.	.	32eeee-/	3	.
.	.	32dddd/	1	.
.	.	32ffff/	5	.
.	.	32dddd/	3	.
.	.	32bbb-/	2	.
.	.	32fff/JJJ	1	.
*	*	*X8va	*	*
4r	.	24ddd\LLL	.	.
.	.	24bb-\	.	.
.	.	24fff\	.	.
.	.	24ddd\	.	.
.	.	24bb-\	.	.
.	.	24ff\JJJ	.	.
=106	=106	=106	=106	=106
4r	.	24dd\LLL	.	.
.	.	24b-\	.	.
.	.	24ff\	.	.
.	.	24dd\	.	.
.	.	24b-\	.	.
.	.	24f\JJJ	.	.
4r	.	24d/LLL	.	.
.	.	24B-/	.	.
.	.	24f/	.	.
.	.	24d/	.	.
.	.	24B-/	.	.
.	.	24F</JJJ	.	.
4r	.	20D</LLL	.	.
.	.	20BB-</	.	.
.	.	20FF</	.	.
.	.	20BB-</	.	.
.	.	20D</JJJ)	.	.
*	*	*	*	*
!	!	!	!	!LO:DY:b
4r	.	[2.F</	5	sf
32qqEEn/LLL	.	.	.	.
32qqFF/	.	.	.	.
32qqGG/JJJ	.	.	.	.
2FFT/	.	.	.	.
32qqEE/LLL	.	.	.	.
32qqFF/JJJ	.	.	.	.
*	*	*Xped	*	*
!!LO:LB:g=original	!	!	!	!
=107	=107	=107	=107	=107
*	*	*^	*	*
*	*	*	*^	*	*
*	*	*	*	*^	*	*
4AAA\	.	2.F</_	4r	2ryy	1ryy	.	.
4r	.	.	4d/	.	.	3	.
32qqEEn/LLL	.	.	.	.	.	.	.
32qqFF/	.	.	.	.	.	.	.
32qqGG/JJJ	.	.	.	.	.	.	.
*	*	*	*	*	*	*above	*
4FFT>\	.	.	2a-X/	4Bn\	.	5	.
32qqEE/LLL	.	.	.	.	.	.	.
32qqFF/JJJ	.	.	.	.	.	.	.
4FFF\	.	2.F</]	.	2c#X/	.	.	.
4r	.	.	2g/	.	2B-X\	.	.
32qqEE/LLL	.	.	.	.	.	.	.
32qqFF/	.	.	.	.	.	.	.
32qqGG/JJJ	.	.	.	.	.	.	.
4FFT>\	.	.	.	4cn/	.	.	.
*	*	*	*	*v	*v	*	*
*	*	*	*v	*v	*	*
*	*	*v	*v	*	*
(32qqEE/LLL	.	.	.	.
32qqFF/JJJ	.	.	.	.
=108	=108	=108	=108	=108
*	*	*^	*	*
*	*	*	*^	*	*
4FFF\)	.	2g-X/	4A\	2ryy	.	.
4r	.	.	2c\	.	.	.
32qqEEn/LLL	.	.	.	.	.	.
32qqFF/	.	.	.	.	.	.
32qqGG/JJJ	.	.	.	.	.	.
4FFT/	.	2f/	.	2A-X\	.	.
(32qqEE-y/LLL	.	.	.	.	.	.
32qqFF/JJJ	.	.	.	.	.	.
4FFF\)	.	.	4Bn/	.	.	.
4r	.	4G</ 4e-	2ryy	2ryy	.	.
32qqEE-/LLL	.	.	.	.	.	.
32qqFF/	.	.	.	.	.	.
32qqGG/JJJ	.	.	.	.	.	.
4FFT\	.	4F</ 4d	.	.	.	.
*	*	*v	*v	*v	*	*
32qqEE-/LLL	.	.	.	.
32qqFF/JJJ	.	.	.	.
=109	=109	=109	=109	=109
4FFF\	.	[>2.En</ [2.B- [<2.c	.	sfz
32qqEEn/LLL	.	.	.	.
32qqFF/	.	.	.	.
32qqGG/JJJ	.	.	.	.
2FFT\	.	.	.	.
32qqEE/LLL	.	.	.	.
32qqFF/JJJ	.	.	.	.
4FFF\	.	4E</] 4B-] 4c]	.	.
4r	.	4E</ 4B- 4c	.	p
4r	.	4E</ 4B- 4c	.	.
!!LO:LB:g=original	!	!	!	!
=110	=110	=110	=110	=110
*^	*	*	*	*
4E-X:/ 4A: 4c:	4r	.	2.f/	.	.
32qqEE-/LLL	.	.	.	.	.
32qqFF/	.	.	.	.	.
32qqGG/JJJ	.	.	.	.	.
2FFT>\	4ryy	.	.	.	.
.	32qqEE-/LLL	.	.	.	.
.	32qqFF/JJJ	.	.	.	.
.	2FFF\	.	.	.	.
4r	.	.	4f/	.	.
2E-\ 2A	2ryy	.	4c</	.	.
.	.	.	4d</	.	.
*v	*v	*	*	*	*
=111	=111	=111	=111	=111
!	!	!LO:N:vis=2	!	!
4r	.	2.D</ [2.B-<	.	pp
32qqAA/LLL	.	.	.	.
32qqBB-/	.	.	.	.
32qqC/JJJ	.	.	.	.
2BB-T>\	.	.	.	.
32qqAA\LLL	.	.	.	.
32qqBB-\	.	.	.	.
32qqD\	.	.	.	.
32qqBB-\	.	.	.	.
32qqFF\	.	.	.	.
32qqDD\JJJ	.	.	.	.
4BBB-\	.	4D</ 4B-<]	.	.
4r	.	2E-<^/ 2G-X< 2B-<	.	.
4BB-\	.	.	.	.
=112	=112	=112	=112	=112
4r	.	2.D</ [2.F< [2.B-<	.	.
32qqAA/LLL	.	.	.	.
32qqBB-/	.	.	.	.
32qqC/JJJ	.	.	.	.
2BB-T>\	.	.	.	.
32qqAA\LLL	.	.	.	.
32qqBB-\	.	.	.	.
32qqD\	.	.	.	.
32qqBB-\	.	.	.	.
32qqFF\	.	.	.	.
32qqDD\JJJ	.	.	.	.
4BBB-\	.	4D</ 4F<] 4B-<]	.	.
4r	.	2E-<^/ 2G-X< 2B-<	.	.
4BB-\	.	.	.	.
=113	=113	=113	=113	=113
*	*	*ped	*	*
4r	.	2.D</ [2.F< [2.B-<	.	.
32qqAA\LLL	.	.	.	.
32qqBB-\	.	.	.	.
32qqC\JJJ	.	.	.	.
!	!	!	!	!LO:DY:b=2
2BB-T>\	.	.	.	ppp
32qqAA\LLL	.	.	.	.
32qqBB-\	.	.	.	.
32qqD\	.	.	.	.
32qqBB-\	.	.	.	.
32qqFF\	.	.	.	.
32qqDD\JJJ	.	.	.	.
2BBB-\	.	2D</ 2F<] 2B-<]	.	.
4ryy	.	4r<	.	.
=114	=114	=114	=114	=114
2.BB-;:\ 2.F: 2.B-: 2.d:	.	2.f;:\ 2.b-: 2.dd: 2.ff: 2.bb-:	.	.
2r	.	2r	.	.
==	==	==	==	==
*-	*-	*-	*-	*-
!!!system-decoration: {(s1,s2)}
!!!RDF**kern: > = above
!!!RDF**kern: < = below
!!!ENC: Filip Voros
!!!END: 2022-10-21
!!!ENC: Natalia Wrzos
!!!END: 2022-11-22
